; generated by PrusaSlicer 2.4.2 on 2023-10-15 at 09:15:48 UTC


;
;

;
;
; 

; external perimeters extrusion width = 0.45mm
; perimeters extrusion width = 0.45mm
; infill extrusion width = 0.45mm
; solid infill extrusion width = 0.45mm
; top infill extrusion width = 0.40mm
; first layer extrusion width = 0.42mm

M73 P0 R19
M73 C14
M201 X1250 Y1250 Z400 E5000 ; sets maximum accelerations, mm/sec^2
M203 X180 Y180 Z12 E80 ; sets maximum feedrates, mm / sec
M204 P1250 R1250 T1250 ; sets acceleration (P, T) and retract acceleration (R), mm/sec^2
M205 X8.00 Y8.00 Z2.00 E10.00 ; sets the jerk limits, mm/sec
M205 S0 T0 ; sets the minimum extruding and travel feed rate, mm/sec
M107
;TYPE:Custom
G90 ; use absolute coordinates
M83 ; extruder relative mode
M104 S170 ; set extruder temp for bed leveling
M140 S60 ; set bed temp
M109 R170 ; wait for bed leveling temp
M190 S60 ; wait for bed temp
G28 ; home all without mesh bed level
G29 ; mesh bed leveling 
M104 S215 ; set extruder temp
G92 E0.0
G1 Y-2.0 X179 F2400
G1 Z3 F720
M109 S215 ; wait for extruder temp

; intro line
G1 X170 F1000
G1 Z0.2 F720
G1 X110.0 E8.0 F900
G1 X40.0 E10.0 F700
G92 E0.0

M221 S95 ; set flow
G21 ; set units to millimeters
G90 ; use absolute coordinates
M83 ; use relative distances for extrusion
M900 K0.2 ; Filament gcode LA 1.5
; ; Filament gcode LA 1.0
M107
;LAYER_CHANGE
;Z:0.2
;HEIGHT:0.2
;BEFORE_LAYER_CHANGE
G92 E0.0
;0.2


G1 E-3.2 F4200
M73 P1 R19
G1 Z.2 F9000
;AFTER_LAYER_CHANGE
;0.2
G1 Z.4
G1 X77.475 Y77.456
G1 Z.2
G1 E3.2 F2400
M204 S800
;TYPE:Skirt/Brim
;WIDTH:0.42
G1 F1200
G1 X78.158 Y76.772 E.03029
G1 X79.957 Y75.359 E.07174
G1 X81.635 Y74.34 E.06156
G1 X83.788 Y73.368 E.07404
G1 X85.979 Y72.707 E.07175
G1 X87.912 Y72.369 E.06154
G1 X90.198 Y72.247 E.07177
G1 X92.624 Y72.441 E.07632
G1 X93.946 Y72.69 E.04216
G1 X95.314 Y73.06 E.04445
G1 X97.582 Y73.947 E.07636
G1 X98.838 Y74.602 E.04441
G1 X100.039 Y75.357 E.04446
G1 X101.118 Y76.158 E.04215
G1 X102.187 Y77.09 E.04446
G1 X103.839 Y78.879 E.07634
G1 X104.682 Y80.019 E.04446
G1 X105.431 Y81.221 E.04442
G1 X106.083 Y82.48 E.04445
G1 X106.606 Y83.719 E.04216
G1 X107.309 Y86.05 E.07636
G1 X107.569 Y87.444 E.04445
G1 X107.717 Y88.853 E.04443
G1 X107.633 Y100.593 E.3681
G1 X107.573 Y101.261 E.02103
G1 X107.157 Y102.824 E.05071
G1 X106.693 Y103.765 E.0329
G1 X106.308 Y104.344 E.0218
G1 X105.691 Y105.063 E.0297
G1 X104.881 Y105.763 E.03357
G1 X103.472 Y106.557 E.05072
G1 X102.453 Y106.887 E.03358
G1 X101.52 Y107.042 E.02963
G1 X90.201 Y107.753 E.3556
G1 X88.387 Y107.681 E.05694
G1 X86.981 Y107.495 E.04445
G1 X85.595 Y107.199 E.04446
G1 X84.236 Y106.792 E.04445
G1 X82.485 Y106.085 E.05924
G1 X80.755 Y105.157 E.06156
G1 X79.196 Y104.088 E.05924
G1 X77.76 Y102.86 E.05926
G1 X76.462 Y101.486 E.05925
G1 X75.317 Y99.981 E.05928
G1 X74.34 Y98.365 E.05924
G1 X73.394 Y96.281 E.07174
G1 X72.802 Y94.409 E.06155
G1 X72.378 Y92.16 E.07176
G1 X72.247 Y90.201 E.06155
G1 X72.369 Y87.916 E.07175
G1 X72.707 Y85.983 E.06155
G1 X73.367 Y83.792 E.07174
G1 X74.338 Y81.639 E.07405
G1 X75.357 Y79.961 E.06154
G1 X76.77 Y78.161 E.07175
G1 X77.432 Y77.498 E.0294
M204 S1250
G1 X77.699 Y77.764 F9000
M204 S800
G1 F1200
G1 X78.406 Y77.056 E.03138
G1 X80.174 Y75.668 E.07048
G1 X81.809 Y74.674 E.05999
G1 X83.916 Y73.723 E.07247
G1 X86.068 Y73.074 E.07049
G1 X87.952 Y72.744 E.05997
G1 X90.198 Y72.624 E.07051
G1 X92.564 Y72.813 E.07444
G1 X93.866 Y73.059 E.04153
G1 X95.205 Y73.421 E.04351
G1 X97.417 Y74.286 E.07447
G1 X98.647 Y74.927 E.04347
G1 X99.77 Y75.63 E.04155
G1 X101.638 Y77.096 E.07445
G1 X102.63 Y78.065 E.04349
G1 X103.502 Y79.062 E.04153
G1 X104.868 Y81.005 E.07446
G1 X105.538 Y82.22 E.04351
M73 P2 R19
G1 X106.109 Y83.484 E.04349
G1 X106.578 Y84.79 E.04351
G1 X106.94 Y86.13 E.04352
G1 X107.195 Y87.494 E.0435
G1 X107.34 Y88.873 E.04349
G1 X107.256 Y100.589 E.36733
G1 X107.198 Y101.219 E.01986
G1 X106.811 Y102.674 E.04719
G1 X106.363 Y103.581 E.03172
G1 X105.999 Y104.128 E.02062
G1 X105.431 Y104.79 E.02734
G1 X104.649 Y105.466 E.03239
G1 X103.338 Y106.204 E.04719
G1 X102.354 Y106.523 E.0324
G1 X101.496 Y106.665 E.02728
G1 X90.265 Y107.375 E.35284
G1 X88.815 Y107.336 E.04548
G1 X87.436 Y107.187 E.0435
G1 X86.072 Y106.927 E.04352
G1 X84.734 Y106.56 E.04351
G1 X82.64 Y105.741 E.07048
G1 X81.009 Y104.87 E.05798
G1 X79.479 Y103.83 E.05802
G1 X78.069 Y102.633 E.05799
G1 X76.793 Y101.293 E.058
G1 X75.668 Y99.826 E.05799
G1 X74.675 Y98.191 E.05998
G1 X73.891 Y96.516 E.05798
G1 X73.184 Y94.381 E.0705
G1 X72.805 Y92.506 E.05998
G1 X72.625 Y90.265 E.07049
G1 X72.741 Y87.979 E.07178
G1 X73.073 Y86.072 E.06067
G1 X73.722 Y83.92 E.07048
G1 X74.489 Y82.167 E.05998
G1 X75.63 Y80.23 E.07051
G1 X77.053 Y78.409 E.07245
G1 X77.656 Y77.806 E.02673
M204 S1250
; printing object key_tag_hospital.stl id:0 copy 0
G1 E-2.24 F4200
;WIPE_START
G1 F7200
G1 X78.406 Y77.056 E-.58792
G1 X78.866 Y76.695 E-.32408
;WIPE_END
G1 E-.048 F4200
G1 Z.4 F9000
G1 X98.889 Y98.375
G1 Z.2
G1 E3.2 F2400
M204 S800
;TYPE:Perimeter
G1 F1200
G1 X99.274 Y98.041 E.01599
G1 X99.754 Y97.768 E.01732
G1 X100.315 Y97.592 E.01843
G1 X100.812 Y97.529 E.01569
G1 X101.358 Y97.568 E.01715
G1 X101.885 Y97.713 E.01715
G1 X102.374 Y97.958 E.01716
G1 X102.806 Y98.294 E.01715
G1 X103.165 Y98.707 E.01715
G1 X103.435 Y99.183 E.01716
G1 X103.608 Y99.702 E.01715
G1 X103.676 Y100.245 E.01715
G1 X103.637 Y100.79 E.01715
G1 X103.493 Y101.318 E.01716
G1 X103.248 Y101.807 E.01716
G1 X102.912 Y102.239 E.01715
G1 X102.499 Y102.597 E.01715
G1 X102.023 Y102.868 E.01716
G1 X101.504 Y103.041 E.01716
G1 X100.961 Y103.109 E.01715
G1 X100.415 Y103.07 E.01715
G1 X99.888 Y102.925 E.01715
G1 X99.399 Y102.68 E.01716
G1 X98.966 Y102.345 E.01715
G1 X98.608 Y101.931 E.01715
G1 X98.337 Y101.456 E.01716
G1 X98.165 Y100.937 E.01715
G1 X98.097 Y100.394 E.01715
G1 X98.136 Y99.848 E.01715
G1 X98.28 Y99.321 E.01716
G1 X98.525 Y98.831 E.01716
G1 X98.847 Y98.417 E.01644
M204 S1250
G1 X99.136 Y98.66 F9000
M204 S800
;TYPE:External perimeter
G1 F1200
G1 X99.493 Y98.35 E.01482
G1 X99.906 Y98.115 E.01488
G1 X100.396 Y97.962 E.0161
G1 X100.822 Y97.908 E.01347
G1 X101.294 Y97.942 E.01483
G1 X101.75 Y98.067 E.01482
G1 X102.172 Y98.279 E.01483
G1 X102.546 Y98.569 E.01483
G1 X102.855 Y98.926 E.01483
G1 X103.089 Y99.337 E.01483
G1 X103.239 Y99.786 E.01482
G1 X103.298 Y100.255 E.01483
G1 X103.264 Y100.726 E.01482
G1 X103.139 Y101.182 E.01483
G1 X102.927 Y101.605 E.01483
G1 X102.637 Y101.979 E.01482
G1 X102.28 Y102.288 E.01482
G1 X101.869 Y102.522 E.01483
G1 X101.42 Y102.671 E.01483
G1 X100.951 Y102.73 E.01482
G1 X100.479 Y102.697 E.01483
G1 X100.023 Y102.571 E.01482
G1 X99.601 Y102.36 E.01483
G1 X99.227 Y102.07 E.01483
G1 X98.917 Y101.712 E.01483
G1 X98.683 Y101.301 E.01483
G1 X98.534 Y100.853 E.01482
G1 X98.475 Y100.384 E.01483
G1 X98.509 Y99.912 E.01482
G1 X98.634 Y99.456 E.01483
G1 X98.846 Y99.033 E.01483
G1 X99.099 Y98.707 E.01294
M204 S1250
G1 X99.022 Y98.276 F9000
G1 X98.586 Y98.139
M204 S800
;TYPE:Perimeter
G1 F1200
G1 X98.205 Y98.629 E.01948
G1 X97.926 Y99.185 E.01949
G1 X97.762 Y99.784 E.01948
G1 X97.718 Y100.404 E.01948
G1 X97.795 Y101.02 E.01948
G1 X97.921 Y101.399 E.01251
G1 X96.543 Y102.191 E.04983
G1 X95.886 Y102.521 E.02307
G1 X95.211 Y102.817 E.02309
G1 X94.521 Y103.076 E.0231
G1 X93.819 Y103.298 E.0231
G1 X93.106 Y103.482 E.0231
G1 X92.384 Y103.629 E.0231
G1 X91.655 Y103.736 E.0231
G1 X90.922 Y103.805 E.0231
G1 X90.186 Y103.834 E.0231
G1 X89.449 Y103.825 E.02309
G1 X88.714 Y103.776 E.0231
G1 X87.983 Y103.688 E.02309
G1 X87.257 Y103.561 E.0231
G1 X86.539 Y103.396 E.0231
G1 X85.831 Y103.193 E.0231
G1 X85.135 Y102.952 E.0231
G1 X84.453 Y102.675 E.0231
G1 X83.786 Y102.362 E.02309
G1 X83.137 Y102.013 E.0231
G1 X82.507 Y101.631 E.02309
G1 X81.899 Y101.216 E.0231
G1 X81.313 Y100.769 E.0231
G1 X80.753 Y100.291 E.0231
G1 X80.218 Y99.784 E.0231
G1 X79.711 Y99.25 E.0231
G1 X79.233 Y98.689 E.0231
G1 X78.786 Y98.104 E.02309
G1 X78.371 Y97.495 E.0231
G1 X77.988 Y96.866 E.0231
G1 X77.64 Y96.217 E.0231
G1 X77.329 Y95.556 E.02289
G1 X76.922 Y94.515 E.03504
G1 X76.702 Y93.819 E.0229
G1 X76.519 Y93.112 E.02289
G1 X76.312 Y92.014 E.03504
G1 X76.225 Y91.295 E.02269
G1 X76.166 Y90.179 E.03504
G1 X76.175 Y89.449 E.02289
G1 X76.224 Y88.721 E.0229
G1 X76.372 Y87.613 E.03504
G1 X76.517 Y86.897 E.02289
G1 X76.701 Y86.184 E.02309
G1 X76.923 Y85.482 E.02309
G1 X77.182 Y84.792 E.0231
G1 X77.477 Y84.117 E.0231
G1 X77.805 Y83.465 E.02289
G1 X78.373 Y82.502 E.03504
G1 X78.781 Y81.904 E.02269
G1 X79.467 Y81.03 E.03484
G1 X80.22 Y80.214 E.03484
G1 X80.75 Y79.711 E.02289
G1 X81.306 Y79.238 E.02289
G1 X82.203 Y78.571 E.03504
G1 X82.817 Y78.175 E.0229
G1 X83.451 Y77.813 E.0229
G1 X84.456 Y77.324 E.03504
G1 X85.126 Y77.052 E.02269
G1 X86.187 Y76.7 E.03504
G1 X86.894 Y76.518 E.02289
G1 X87.61 Y76.373 E.02289
G1 X88.717 Y76.224 E.03504
G1 X89.446 Y76.176 E.0229
G1 X90.176 Y76.166 E.02289
G1 X91.292 Y76.225 E.03504
G1 X92.011 Y76.312 E.02269
G1 X93.108 Y76.518 E.03503
G1 X93.828 Y76.705 E.0233
G1 X94.865 Y77.048 E.03424
G1 X95.888 Y77.48 E.03484
G1 X96.535 Y77.805 E.02269
G1 X97.492 Y78.369 E.03484
G1 X98.397 Y79.004 E.03464
G1 X99.252 Y79.713 E.03484
G1 X99.777 Y80.211 E.02269
G1 X100.531 Y81.028 E.03484
G1 X101.213 Y81.896 E.03464
G1 X101.828 Y82.822 E.03484
G1 X102.187 Y83.451 E.0227
G1 X102.673 Y84.45 E.03484
G1 X103.078 Y85.485 E.03484
G1 X103.298 Y86.181 E.0229
G1 X103.482 Y86.894 E.0231
G1 X103.629 Y87.616 E.02309
G1 X103.736 Y88.345 E.0231
G1 X103.805 Y89.078 E.0231
G1 X103.834 Y89.814 E.0231
G1 X103.825 Y90.544 E.02289
G1 X103.736 Y91.658 E.03504
G1 X103.629 Y92.381 E.0229
G1 X103.483 Y93.103 E.02309
G1 X103.299 Y93.816 E.0231
G1 X103.077 Y94.518 E.02309
G1 X102.818 Y95.208 E.0231
G1 X102.523 Y95.882 E.02307
G1 X101.806 Y97.3 E.04983
G1 X101.421 Y97.195 E.01251
G1 X100.802 Y97.151 E.01948
G1 X100.235 Y97.222 E.01792
G1 X99.603 Y97.42 E.02076
G1 X99.055 Y97.732 E.01975
G1 X98.631 Y98.099 E.0176
M204 S1250
G1 E-2.24 F4200
;WIPE_START
G1 F7200
G1 X98.205 Y98.629 E-.37698
G1 X97.926 Y99.185 E-.34444
G1 X97.836 Y99.517 E-.19058
;WIPE_END
G1 E-.048 F4200
G1 Z.4 F9000
G1 X97.926 Y101.831
G1 Z.2
G1 E3.2 F2400
M204 S800
G1 F1200
G1 X96.722 Y102.523 E.04355
G1 X96.046 Y102.863 E.02371
G1 X95.353 Y103.166 E.02372
G1 X94.645 Y103.432 E.02373
G1 X93.923 Y103.66 E.02373
G1 X93.191 Y103.85 E.02372
G1 X92.449 Y104 E.02373
G1 X91.7 Y104.111 E.02373
G1 X90.947 Y104.181 E.02373
G1 X90.191 Y104.211 E.02372
G1 X89.434 Y104.201 E.02373
G1 X88.679 Y104.151 E.02373
G1 X87.928 Y104.061 E.02372
G1 X87.183 Y103.931 E.02373
G1 X86.445 Y103.761 E.02373
G1 X85.718 Y103.552 E.02373
G1 X85.003 Y103.305 E.02373
G1 X84.301 Y103.02 E.02373
G1 X83.617 Y102.699 E.02372
M73 P3 R19
G1 X82.95 Y102.341 E.02373
G1 X82.303 Y101.948 E.02372
G1 X81.678 Y101.522 E.02373
G1 X81.077 Y101.062 E.02373
G1 X80.501 Y100.572 E.02372
G1 X79.951 Y100.051 E.02373
G1 X79.431 Y99.502 E.02373
G1 X78.94 Y98.926 E.02373
G1 X78.48 Y98.325 E.02372
G1 X78.054 Y97.7 E.02373
G1 X77.661 Y97.053 E.02373
G1 X77.303 Y96.386 E.02373
G1 X76.983 Y95.705 E.0236
G1 X76.566 Y94.641 E.03583
G1 X76.34 Y93.923 E.0236
G1 X76.151 Y93.194 E.0236
G1 X75.939 Y92.072 E.03583
G1 X75.85 Y91.328 E.02348
G1 X75.789 Y90.187 E.03583
G1 X75.799 Y89.434 E.0236
G1 X75.849 Y88.683 E.0236
G1 X76 Y87.551 E.03583
G1 X76.149 Y86.813 E.0236
G1 X76.339 Y86.08 E.02373
G1 X76.567 Y85.359 E.02372
G1 X76.833 Y84.65 E.02373
G1 X77.136 Y83.957 E.02373
G1 X77.474 Y83.284 E.0236
G1 X78.054 Y82.3 E.03583
G1 X78.476 Y81.681 E.02348
G1 X79.179 Y80.785 E.0357
G1 X79.952 Y79.949 E.03571
G1 X80.498 Y79.431 E.0236
G1 X81.071 Y78.942 E.0236
G1 X81.988 Y78.261 E.03583
G1 X82.621 Y77.853 E.0236
G1 X83.274 Y77.479 E.0236
G1 X84.302 Y76.98 E.03583
G1 X84.996 Y76.698 E.02348
G1 X86.081 Y76.339 E.03583
G1 X86.809 Y76.15 E.0236
G1 X87.547 Y76.001 E.0236
G1 X88.68 Y75.849 E.03583
G1 X89.431 Y75.799 E.0236
G1 X90.184 Y75.789 E.0236
G1 X91.325 Y75.849 E.03583
G1 X92.068 Y75.939 E.02348
G1 X93.191 Y76.15 E.03582
G1 X93.935 Y76.343 E.02409
G1 X94.997 Y76.695 E.0351
G1 X96.047 Y77.138 E.03571
G1 X96.716 Y77.474 E.02348
G1 X97.697 Y78.052 E.03571
G1 X98.626 Y78.704 E.03558
G1 X99.502 Y79.431 E.03571
G1 X100.046 Y79.946 E.02348
G1 X100.818 Y80.783 E.03571
G1 X101.519 Y81.675 E.03558
G1 X102.149 Y82.624 E.0357
G1 X102.521 Y83.274 E.02348
G1 X103.019 Y84.298 E.0357
G1 X103.434 Y85.359 E.03571
G1 X103.66 Y86.077 E.0236
G1 X103.85 Y86.809 E.02373
G1 X104 Y87.551 E.02372
G1 X104.111 Y88.3 E.02373
G1 X104.181 Y89.053 E.02373
G1 X104.211 Y89.809 E.02372
G1 X104.202 Y90.562 E.0236
G1 X104.11 Y91.701 E.03583
G1 X104.001 Y92.446 E.0236
G1 X103.851 Y93.187 E.02372
G1 X103.661 Y93.92 E.02373
G1 X103.433 Y94.641 E.02372
G1 X103.167 Y95.35 E.02373
G1 X102.864 Y96.043 E.02371
G1 X102.238 Y97.282 E.04355
G1 X103.037 Y97.934 E.03234
G1 X103.264 Y98.16 E.01004
G1 X103.467 Y98.407 E.01004
G1 X103.645 Y98.674 E.01004
G1 X103.795 Y98.957 E.01004
G1 X103.916 Y99.253 E.01004
G1 X104.007 Y99.56 E.01004
G1 X104.067 Y99.874 E.01004
G1 X104.096 Y100.193 E.01004
G1 X104.092 Y100.514 E.01004
G1 X104.057 Y100.832 E.01004
G1 X103.99 Y101.145 E.01004
G1 X103.893 Y101.45 E.01004
G1 X103.77 Y101.733 E.00969
G1 X103.609 Y102.024 E.01042
G1 X103.426 Y102.286 E.01001
G1 X103.218 Y102.529 E.01004
G1 X102.986 Y102.75 E.01004
G1 X102.733 Y102.947 E.01004
G1 X102.463 Y103.118 E.01004
G1 X102.176 Y103.261 E.01004
G1 X101.877 Y103.375 E.01004
G1 X101.568 Y103.458 E.01004
G1 X101.252 Y103.51 E.01004
G1 X100.932 Y103.531 E.01004
G1 X100.612 Y103.519 E.01004
G1 X100.295 Y103.476 E.01004
G1 X99.984 Y103.402 E.01004
G1 X99.681 Y103.296 E.01004
G1 X99.391 Y103.162 E.01004
G1 X99.115 Y102.999 E.01004
G1 X98.857 Y102.809 E.01004
G1 X98.619 Y102.594 E.01004
G1 X97.966 Y101.875 E.03045
M204 S1250
G1 X97.851 Y102.309 F9000
M204 S800
;TYPE:External perimeter
G1 F1200
G1 X96.9 Y102.855 E.03436
G1 X96.207 Y103.204 E.02435
G1 X95.495 Y103.516 E.02435
G1 X94.768 Y103.789 E.02436
G1 X94.027 Y104.023 E.02436
G1 X93.275 Y104.218 E.02435
G1 X92.514 Y104.372 E.02436
G1 X91.746 Y104.485 E.02436
G1 X90.972 Y104.557 E.02436
G1 X90.196 Y104.589 E.02435
G1 X89.419 Y104.578 E.02436
G1 X88.644 Y104.527 E.02436
G1 X87.873 Y104.434 E.02435
G1 X87.108 Y104.3 E.02436
G1 X86.351 Y104.126 E.02435
G1 X85.604 Y103.912 E.02436
G1 X84.87 Y103.658 E.02436
G1 X84.15 Y103.366 E.02436
G1 X83.447 Y103.036 E.02435
G1 X82.763 Y102.668 E.02436
G1 X82.099 Y102.265 E.02435
G1 X81.457 Y101.827 E.02436
G1 X80.84 Y101.356 E.02435
G1 X80.248 Y100.852 E.02435
G1 X79.685 Y100.318 E.02436
G1 X79.15 Y99.754 E.02436
G1 X78.646 Y99.163 E.02436
G1 X78.175 Y98.546 E.02436
G1 X77.737 Y97.904 E.02436
G1 X77.333 Y97.24 E.02436
G1 X76.966 Y96.556 E.02435
G1 X76.636 Y95.854 E.02431
G1 X76.211 Y94.767 E.03661
G1 X75.977 Y94.027 E.02431
G1 X75.783 Y93.277 E.02431
G1 X75.566 Y92.129 E.03662
G1 X75.474 Y91.361 E.02427
G1 X75.411 Y90.195 E.03662
G1 X75.422 Y89.419 E.02431
G1 X75.473 Y88.646 E.02431
G1 X75.628 Y87.488 E.03662
G1 X75.782 Y86.728 E.02431
G1 X75.976 Y85.976 E.02436
G1 X76.21 Y85.235 E.02435
G1 X76.483 Y84.508 E.02436
G1 X76.795 Y83.796 E.02436
G1 X77.143 Y83.104 E.02431
G1 X77.736 Y82.098 E.03662
G1 X78.172 Y81.458 E.02427
G1 X78.892 Y80.541 E.03657
G1 X79.683 Y79.684 E.03657
G1 X80.246 Y79.15 E.02431
G1 X80.836 Y78.647 E.02431
G1 X81.773 Y77.951 E.03661
G1 X82.425 Y77.531 E.02431
G1 X83.098 Y77.146 E.02431
G1 X84.148 Y76.635 E.03661
G1 X84.865 Y76.343 E.02427
G1 X85.974 Y75.977 E.03662
G1 X86.725 Y75.782 E.02431
G1 X87.485 Y75.629 E.02431
G1 X88.642 Y75.473 E.03661
G1 X89.416 Y75.422 E.02431
G1 X90.191 Y75.411 E.02431
G1 X91.357 Y75.473 E.03662
G1 X92.126 Y75.566 E.02426
G1 X93.273 Y75.782 E.03661
G1 X94.041 Y75.981 E.02488
G1 X95.13 Y76.342 E.03596
G1 X96.205 Y76.795 E.03657
G1 X96.896 Y77.143 E.02427
G1 X97.901 Y77.735 E.03657
G1 X98.855 Y78.404 E.03653
G1 X99.753 Y79.149 E.03657
G1 X100.314 Y79.681 E.02427
G1 X101.106 Y80.538 E.03657
G1 X101.825 Y81.454 E.03653
G1 X102.47 Y82.426 E.03657
G1 X102.854 Y83.098 E.02427
G1 X103.364 Y84.147 E.03657
G1 X103.789 Y85.233 E.03657
G1 X104.023 Y85.973 E.02431
G1 X104.218 Y86.725 E.02436
G1 X104.372 Y87.486 E.02435
