; generated by PrusaSlicer 2.4.2 on 2023-10-15 at 13:57:55 UTC


;
;

;
;
; 

; external perimeters extrusion width = 0.45mm
; perimeters extrusion width = 0.45mm
; infill extrusion width = 0.45mm
; solid infill extrusion width = 0.45mm
; top infill extrusion width = 0.40mm
; first layer extrusion width = 0.42mm

M73 P0 R18
M73 C14
M201 X1250 Y1250 Z400 E5000 ; sets maximum accelerations, mm/sec^2
M203 X180 Y180 Z12 E80 ; sets maximum feedrates, mm / sec
M204 P1250 R1250 T1250 ; sets acceleration (P, T) and retract acceleration (R), mm/sec^2
M205 X8.00 Y8.00 Z2.00 E10.00 ; sets the jerk limits, mm/sec
M205 S0 T0 ; sets the minimum extruding and travel feed rate, mm/sec
M107
;TYPE:Custom
G90 ; use absolute coordinates
M83 ; extruder relative mode
M104 S170 ; set extruder temp for bed leveling
M140 S60 ; set bed temp
M109 R170 ; wait for bed leveling temp
M190 S60 ; wait for bed temp
G28 ; home all without mesh bed level
G29 ; mesh bed leveling 
M104 S215 ; set extruder temp
G92 E0.0
G1 Y-2.0 X179 F2400
G1 Z3 F720
M109 S215 ; wait for extruder temp

; intro line
G1 X170 F1000
G1 Z0.2 F720
G1 X110.0 E8.0 F900
G1 X40.0 E10.0 F700
G92 E0.0

M221 S95 ; set flow
G21 ; set units to millimeters
G90 ; use absolute coordinates
M83 ; use relative distances for extrusion
M900 K0.12 ; Filament gcode LA 1.5
; ; Filament gcode LA 1.0
M107
;LAYER_CHANGE
;Z:0.2
;HEIGHT:0.2
;BEFORE_LAYER_CHANGE
G92 E0.0
;0.2


G1 E-3.2 F4200
M73 P1 R18
G1 Z.2 F9000
;AFTER_LAYER_CHANGE
;0.2
G1 Z.4
G1 X75.588 Y77.306
G1 Z.2
G1 E3.2 F2400
M204 S800
;TYPE:Skirt/Brim
;WIDTH:0.42
G1 F1200
G1 X77.008 Y76.058 E.05925
G1 X78.216 Y75.185 E.04675
G1 X79.846 Y74.229 E.05926
G1 X81.501 Y73.478 E.05697
G1 X83.293 Y72.881 E.05924
G1 X84.747 Y72.547 E.04676
G1 X86.547 Y72.306 E.05694
G1 X88.059 Y72.246 E.04744
G1 X89.851 Y72.343 E.05628
G1 X91.253 Y72.547 E.04443
G1 X92.706 Y72.881 E.04676
G1 X94.057 Y73.311 E.04445
G1 X95.731 Y74.018 E.05694
G1 X96.981 Y74.685 E.04445
G1 X98.175 Y75.451 E.04446
G1 X99.303 Y76.309 E.04445
G1 X101.02 Y77.931 E.07405
G1 X108.5 Y86.084 E.34692
G1 X108.994 Y86.892 E.02971
G1 X109.491 Y88.141 E.04215
G1 X109.704 Y89.191 E.03359
G1 X109.751 Y90.137 E.0297
G1 X109.644 Y91.203 E.03357
G1 X109.41 Y92.121 E.02971
G1 X108.863 Y93.349 E.04215
G1 X108.26 Y94.234 E.03359
G1 X101.02 Y102.069 E.33447
G1 X99.303 Y103.691 E.07405
G1 X97.845 Y104.774 E.05696
G1 X96.635 Y105.513 E.04446
G1 X95.369 Y106.152 E.04445
G1 X93.989 Y106.713 E.04673
G1 X92.636 Y107.138 E.04446
G1 X90.86 Y107.522 E.05697
G1 X89.453 Y107.694 E.04443
G1 X87.964 Y107.754 E.04675
G1 X86.149 Y107.657 E.05698
G1 X84.283 Y107.361 E.05924
G1 X82.459 Y106.867 E.05924
G1 X81.063 Y106.343 E.04677
G1 X79.429 Y105.548 E.05696
G1 X78.155 Y104.774 E.04674
G1 X76.641 Y103.644 E.05924
G1 X75.306 Y102.412 E.05697
G1 X74.058 Y100.992 E.05925
G1 X73.185 Y99.784 E.04675
G1 X72.263 Y98.219 E.05694
G1 X71.629 Y96.869 E.04677
G1 X71.012 Y95.16 E.05696
G1 X70.56 Y93.325 E.05924
G1 X70.306 Y91.453 E.05924
G1 X70.246 Y89.963 E.04675
G1 X70.343 Y88.149 E.05697
G1 X70.639 Y86.283 E.05924
G1 X71.133 Y84.459 E.05924
G1 X71.657 Y83.063 E.04677
G1 X72.452 Y81.429 E.05696
G1 X73.226 Y80.155 E.04674
G1 X74.309 Y78.697 E.05696
G1 X75.527 Y77.372 E.05642
M204 S1250
G1 X75.804 Y77.627 F9000
M204 S800
G1 F1200
G1 X77.244 Y76.352 E.06031
G1 X78.42 Y75.502 E.04549
G1 X80.016 Y74.566 E.058
G1 X81.643 Y73.828 E.05602
G1 X83.397 Y73.244 E.05798
M73 P2 R18
G1 X84.812 Y72.918 E.0455
G1 X86.582 Y72.681 E.05599
G1 X88.054 Y72.623 E.04618
G1 X89.816 Y72.718 E.05533
G1 X91.188 Y72.918 E.04348
G1 X92.602 Y73.244 E.0455
G1 X93.925 Y73.664 E.04351
G1 X95.57 Y74.359 E.056
G1 X96.794 Y75.013 E.04351
G1 X97.962 Y75.762 E.04352
G1 X99.066 Y76.603 E.04351
G1 X100.747 Y78.19 E.07248
G1 X107.959 Y85.993 E.33317
G1 X108.541 Y86.848 E.03241
G1 X109.056 Y88.008 E.0398
G1 X109.271 Y88.853 E.02735
G1 X109.374 Y90.119 E.0398
G1 X109.271 Y91.147 E.03239
G1 X109.056 Y91.992 E.02735
G1 X108.541 Y93.152 E.0398
G1 X107.959 Y94.007 E.03241
G1 X100.472 Y102.1 E.34569
G1 X98.756 Y103.648 E.07248
G1 X97.58 Y104.498 E.04549
G1 X96.393 Y105.216 E.0435
G1 X94.786 Y105.997 E.05602
G1 X93.488 Y106.488 E.0435
G1 X92.155 Y106.873 E.04352
G1 X90.795 Y107.151 E.04351
G1 X89.418 Y107.319 E.04349
G1 X87.969 Y107.377 E.04549
G1 X86.184 Y107.282 E.05603
G1 X84.358 Y106.991 E.05799
G1 X82.573 Y106.508 E.05799
G1 X81.214 Y105.997 E.04551
G1 X79.607 Y105.216 E.05602
G1 X78.368 Y104.463 E.04548
G1 X76.934 Y103.397 E.05602
G1 X75.572 Y102.145 E.05799
G1 X74.352 Y100.756 E.05799
G1 X73.502 Y99.58 E.04549
G1 X72.595 Y98.041 E.056
G1 X71.978 Y96.727 E.04551
G1 X71.372 Y95.046 E.05602
G1 X70.93 Y93.251 E.05799
G1 X70.681 Y91.418 E.05798
G1 X70.623 Y89.968 E.04549
G1 X70.718 Y88.184 E.05603
G1 X71.009 Y86.358 E.05799
G1 X71.492 Y84.573 E.05799
G1 X72.003 Y83.214 E.04551
G1 X72.784 Y81.607 E.05602
G1 X73.537 Y80.368 E.04548
G1 X74.603 Y78.934 E.05601
G1 X75.743 Y77.693 E.05284
M204 S1250
; printing object key_tag_lightning-bolt.stl id:0 copy 0
G1 E-2.24 F4200
;WIPE_START
G1 F7200
G1 X76.971 Y76.597 E-.912
;WIPE_END
G1 E-.048 F4200
G1 Z.4 F9000
G1 X100.439 Y88.899
G1 Z.2
G1 E3.2 F2400
M204 S800
;TYPE:Perimeter
G1 F1200
G1 X100.68 Y88.449 E.01599
G1 X101.027 Y88.027 E.01715
G1 X101.449 Y87.679 E.01715
G1 X101.932 Y87.422 E.01715
G1 X102.456 Y87.263 E.01716
G1 X102.954 Y87.214 E.01569
G1 X103.54 Y87.261 E.01843
G1 X104.068 Y87.422 E.01732
G1 X104.551 Y87.679 E.01715
G1 X104.973 Y88.027 E.01715
G1 X105.32 Y88.449 E.01715
G1 X105.578 Y88.932 E.01716
G1 X105.737 Y89.456 E.01716
G1 X105.791 Y90 E.01715
G1 X105.737 Y90.544 E.01715
G1 X105.578 Y91.068 E.01716
G1 X105.32 Y91.551 E.01716
G1 X104.973 Y91.973 E.01715
G1 X104.551 Y92.321 E.01715
G1 X104.068 Y92.578 E.01715
G1 X103.544 Y92.737 E.01716
G1 X103 Y92.791 E.01715
G1 X102.456 Y92.737 E.01715
G1 X101.932 Y92.578 E.01716
G1 X101.449 Y92.321 E.01715
G1 X101.027 Y91.973 E.01715
G1 X100.68 Y91.551 E.01715
G1 X100.422 Y91.068 E.01716
G1 X100.263 Y90.544 E.01716
G1 X100.209 Y90 E.01715
G1 X100.263 Y89.456 E.01715
G1 X100.406 Y88.982 E.0155
M204 S1250
G1 X100.772 Y89.077 F9000
M204 S800
;TYPE:External perimeter
G1 F1200
G1 X100.995 Y88.66 E.01483
G1 X101.294 Y88.294 E.01482
G1 X101.66 Y87.995 E.01483
G1 X102.077 Y87.772 E.01482
G1 X102.529 Y87.634 E.01483
G1 X102.957 Y87.592 E.01347
G1 X103.469 Y87.634 E.0161
G1 X103.923 Y87.772 E.01488
G1 X104.34 Y87.995 E.01482
G1 X104.706 Y88.294 E.01483
G1 X105.005 Y88.66 E.01482
G1 X105.228 Y89.077 E.01483
G1 X105.366 Y89.529 E.01483
G1 X105.412 Y90 E.01482
G1 X105.366 Y90.471 E.01482
G1 X105.228 Y90.923 E.01483
G1 X105.005 Y91.34 E.01483
G1 X104.706 Y91.706 E.01482
G1 X104.34 Y92.005 E.01483
G1 X103.923 Y92.228 E.01482
G1 X103.471 Y92.366 E.01483
G1 X103 Y92.412 E.01483
G1 X102.529 Y92.366 E.01483
G1 X102.077 Y92.228 E.01483
G1 X101.66 Y92.005 E.01482
G1 X101.294 Y91.706 E.01483
G1 X100.995 Y91.34 E.01482
G1 X100.772 Y90.923 E.01483
G1 X100.634 Y90.471 E.01483
G1 X100.588 Y90 E.01482
G1 X100.634 Y89.529 E.01482
G1 X100.745 Y89.163 E.01201
M204 S1250
G1 X100.484 Y88.702 F9000
G1 X100.071 Y88.787
M204 S800
;TYPE:Perimeter
G1 F1200
G1 X99.891 Y89.382 E.01949
G1 X99.83 Y90 E.01948
G1 X99.891 Y90.618 E.01948
G1 X100.071 Y91.213 E.01949
G1 X100.365 Y91.761 E.01948
G1 X100.759 Y92.241 E.01948
G1 X101.239 Y92.636 E.01948
G1 X101.584 Y92.82 E.01226
G1 X101.248 Y93.988 E.0381
G1 X101.017 Y94.687 E.0231
G1 X100.599 Y95.717 E.03484
G1 X100.102 Y96.704 E.03464
G1 X99.529 Y97.648 E.03464
G1 X98.882 Y98.543 E.03464
G1 X98.166 Y99.385 E.03464
G1 X97.385 Y100.166 E.03463
G1 X96.544 Y100.882 E.03463
G1 X95.627 Y101.543 E.03544
G1 X95.024 Y101.92 E.0223
G1 X94.385 Y102.274 E.0229
G1 X93.379 Y102.746 E.03484
G1 X92.345 Y103.135 E.03464
G1 X91.283 Y103.44 E.03464
G1 X90.201 Y103.659 E.03464
G1 X89.104 Y103.791 E.03464
G1 X87.994 Y103.835 E.03484
G1 X87.264 Y103.816 E.0229
G1 X86.529 Y103.757 E.0231
G1 X85.799 Y103.659 E.0231
G1 X85.075 Y103.523 E.02309
G1 X84.36 Y103.348 E.0231
G1 X83.661 Y103.137 E.02289
G1 X82.621 Y102.746 E.03484
G1 X81.615 Y102.274 E.03484
G1 X80.976 Y101.92 E.0229
G1 X80.352 Y101.529 E.0231
G1 X79.749 Y101.106 E.0231
G1 X79.17 Y100.651 E.0231
G1 X78.615 Y100.166 E.0231
G1 X78.087 Y99.652 E.0231
G1 X77.588 Y99.111 E.0231
G1 X77.122 Y98.549 E.02289
G1 X76.467 Y97.643 E.03504
G1 X76.08 Y97.024 E.0229
G1 X75.726 Y96.385 E.0229
G1 X75.254 Y95.379 E.03484
G1 X74.863 Y94.339 E.03484
G1 X74.652 Y93.64 E.0229
G1 X74.477 Y92.925 E.0231
G1 X74.341 Y92.201 E.02309
G1 X74.243 Y91.471 E.0231
G1 X74.184 Y90.736 E.0231
G1 X74.165 Y90 E.0231
G1 X74.184 Y89.264 E.0231
G1 X74.243 Y88.529 E.0231
G1 X74.341 Y87.799 E.0231
G1 X74.477 Y87.075 E.02309
G1 X74.652 Y86.36 E.0231
G1 X74.863 Y85.661 E.0229
G1 X75.254 Y84.621 E.03484
G1 X75.726 Y83.615 E.03484
G1 X76.08 Y82.976 E.0229
G1 X76.471 Y82.352 E.0231
G1 X76.894 Y81.749 E.02309
G1 X77.349 Y81.17 E.0231
G1 X77.834 Y80.615 E.0231
G1 X78.348 Y80.087 E.02309
G1 X78.889 Y79.588 E.0231
G1 X79.451 Y79.122 E.02288
G1 X80.373 Y78.457 E.03565
G1 X80.976 Y78.08 E.0223
G1 X81.621 Y77.723 E.0231
G1 X82.283 Y77.401 E.02309
G1 X82.962 Y77.115 E.0231
G1 X83.655 Y76.865 E.0231
G1 X84.354 Y76.654 E.02289
G1 X85.443 Y76.403 E.03504
G1 X86.164 Y76.287 E.0229
G1 X86.889 Y76.209 E.02288
G1 X88.025 Y76.165 E.03565
G1 X88.736 Y76.184 E.0223
G1 X89.464 Y76.242 E.0229
G1 X90.563 Y76.404 E.03484
G1 X91.64 Y76.652 E.03464
G1 X92.693 Y76.985 E.03464
G1 X93.717 Y77.401 E.03464
G1 X94.704 Y77.898 E.03464
M73 P3 R18
G1 X95.648 Y78.471 E.03464
G1 X96.543 Y79.118 E.03463
G1 X97.385 Y79.834 E.03464
G1 X98.166 Y80.616 E.03464
G1 X98.882 Y81.457 E.03464
G1 X99.529 Y82.352 E.03464
G1 X100.102 Y83.296 E.03464
G1 X100.599 Y84.283 E.03464
G1 X101.017 Y85.313 E.03484
G1 X101.248 Y86.012 E.02309
G1 X101.584 Y87.18 E.03811
G1 X101.239 Y87.364 E.01226
G1 X100.759 Y87.759 E.01948
G1 X100.365 Y88.239 E.01948
G1 X100.114 Y88.708 E.01666
M204 S1250
G1 E-2.24 F4200
;WIPE_START
G1 F7200
G1 X99.891 Y89.382 E-.39347
G1 X99.83 Y90 E-.34432
G1 X99.861 Y90.313 E-.17421
;WIPE_END
G1 E-.048 F4200
G1 Z.4 F9000
G1 X101.886 Y86.867
G1 Z.2
G1 E3.2 F2400
M204 S800
G1 F1200
G1 X102.92 Y86.789 E.0325
G1 X103.24 Y86.797 E.01004
G1 X103.558 Y86.837 E.01004
G1 X103.87 Y86.908 E.01004
G1 X104.173 Y87.01 E.01004
G1 X104.465 Y87.142 E.01004
G1 X104.743 Y87.302 E.01004
G1 X105.003 Y87.489 E.01004
G1 X105.243 Y87.701 E.01004
G1 X105.461 Y87.935 E.01004
G1 X105.654 Y88.191 E.01004
G1 X105.821 Y88.464 E.01004
G1 X105.96 Y88.752 E.01004
G1 X106.069 Y89.053 E.01004
G1 X106.148 Y89.364 E.01004
G1 X106.196 Y89.68 E.01004
G1 X106.212 Y90 E.01004
G1 X106.196 Y90.32 E.01004
G1 X106.148 Y90.636 E.01004
G1 X106.069 Y90.947 E.01004
G1 X105.96 Y91.248 E.01004
G1 X105.821 Y91.536 E.01004
G1 X105.654 Y91.809 E.01004
G1 X105.461 Y92.065 E.01004
G1 X105.243 Y92.299 E.01004
G1 X105.003 Y92.511 E.01004
G1 X104.743 Y92.698 E.01004
G1 X104.465 Y92.858 E.01004
G1 X104.173 Y92.99 E.01004
G1 X103.87 Y93.092 E.01004
G1 X103.558 Y93.163 E.01004
G1 X103.24 Y93.203 E.01004
G1 X102.92 Y93.211 E.01004
G1 X101.886 Y93.133 E.0325
G1 X101.609 Y94.099 E.03151
G1 X101.371 Y94.818 E.02373
G1 X100.942 Y95.873 E.0357
G1 X100.432 Y96.887 E.03558
G1 X99.843 Y97.857 E.03558
G1 X99.179 Y98.777 E.03558
G1 X98.443 Y99.641 E.03558
G1 X97.641 Y100.443 E.03558
G1 X96.777 Y101.179 E.03558
G1 X95.837 Y101.856 E.03631
G1 X95.215 Y102.245 E.023
G1 X94.557 Y102.61 E.02361
G1 X93.526 Y103.094 E.03571
G1 X92.464 Y103.493 E.03558
G1 X91.373 Y103.806 E.03558
G1 X90.261 Y104.031 E.03558
G1 X89.134 Y104.167 E.03558
G1 X87.996 Y104.213 E.03571
G1 X87.244 Y104.193 E.0236
G1 X86.489 Y104.132 E.02373
G1 X85.739 Y104.032 E.02373
G1 X84.996 Y103.892 E.02372
G1 X84.261 Y103.712 E.02373
G1 X83.54 Y103.495 E.0236
G1 X82.474 Y103.094 E.0357
G1 X81.443 Y102.61 E.03571
G1 X80.785 Y102.245 E.02361
G1 X80.143 Y101.844 E.02373
G1 X79.524 Y101.409 E.02373
G1 X78.929 Y100.941 E.02373
G1 X78.359 Y100.443 E.02373
G1 X77.817 Y99.915 E.02372
G1 X77.304 Y99.359 E.02373
G1 X76.823 Y98.78 E.0236
G1 X76.154 Y97.853 E.03583
G1 X75.755 Y97.215 E.0236
G1 X75.39 Y96.557 E.02361
G1 X74.906 Y95.526 E.0357
G1 X74.505 Y94.46 E.03571
G1 X74.288 Y93.739 E.0236
G1 X74.108 Y93.004 E.02373
G1 X73.968 Y92.261 E.02372
G1 X73.868 Y91.511 E.02373
G1 X73.807 Y90.756 E.02372
G1 X73.787 Y90 E.02373
G1 X73.807 Y89.244 E.02373
G1 X73.868 Y88.489 E.02373
G1 X73.968 Y87.739 E.02373
G1 X74.108 Y86.996 E.02372
G1 X74.288 Y86.261 E.02373
G1 X74.505 Y85.54 E.0236
G1 X74.906 Y84.474 E.03571
G1 X75.39 Y83.443 E.0357
G1 X75.755 Y82.785 E.02361
G1 X76.156 Y82.143 E.02373
G1 X76.591 Y81.524 E.02372
G1 X77.059 Y80.929 E.02373
G1 X77.557 Y80.359 E.02373
G1 X78.085 Y79.817 E.02372
G1 X78.641 Y79.304 E.02373
G1 X79.22 Y78.824 E.0236
G1 X80.163 Y78.144 E.03644
G1 X80.785 Y77.755 E.023
G1 X81.447 Y77.388 E.02373
G1 X82.127 Y77.057 E.02372
G1 X82.824 Y76.763 E.02373
G1 X83.536 Y76.506 E.02373
G1 X84.257 Y76.289 E.0236
G1 X85.37 Y76.033 E.03583
G1 X86.114 Y75.913 E.0236
G1 X86.862 Y75.833 E.02359
G1 X88.023 Y75.788 E.03644
G1 X88.756 Y75.807 E.023
G1 X89.507 Y75.868 E.02361
G1 X90.633 Y76.034 E.0357
G1 X91.739 Y76.288 E.03558
G1 X92.821 Y76.63 E.03558
G1 X93.873 Y77.058 E.03558
G1 X94.887 Y77.568 E.03558
G1 X95.857 Y78.157 E.03558
G1 X96.776 Y78.821 E.03558
G1 X97.64 Y79.557 E.03559
G1 X98.443 Y80.36 E.03558
G1 X99.179 Y81.223 E.03558
G1 X99.843 Y82.143 E.03558
G1 X100.432 Y83.113 E.03558
G1 X100.942 Y84.127 E.03559
G1 X101.371 Y85.182 E.03571
G1 X101.609 Y85.901 E.02372
G1 X101.861 Y86.78 E.02869
M204 S1250
G1 X102.164 Y86.468 F9000
M204 S800
;TYPE:External perimeter
G1 F1200
G1 X102.911 Y86.412 E.02348
G1 X103.268 Y86.421 E.01122
G1 X103.623 Y86.465 E.01122
G1 X103.972 Y86.545 E.01122
G1 X104.311 Y86.659 E.01122
G1 X104.638 Y86.806 E.01122
G1 X104.947 Y86.985 E.01122
G1 X105.238 Y87.194 E.01122
G1 X105.506 Y87.43 E.01122
G1 X105.75 Y87.693 E.01122
G1 X105.966 Y87.978 E.01122
G1 X106.152 Y88.283 E.01122
G1 X106.308 Y88.606 E.01122
G1 X106.43 Y88.942 E.01122
G1 X106.518 Y89.289 E.01122
G1 X106.572 Y89.643 E.01122
G1 X106.589 Y90 E.01122
G1 X106.572 Y90.357 E.01122
G1 X106.518 Y90.711 E.01122
G1 X106.43 Y91.058 E.01122
G1 X106.308 Y91.394 E.01122
G1 X106.152 Y91.717 E.01122
G1 X105.966 Y92.022 E.01122
G1 X105.75 Y92.307 E.01122
G1 X105.506 Y92.57 E.01122
G1 X105.238 Y92.806 E.01122
G1 X104.947 Y93.015 E.01122
G1 X104.638 Y93.194 E.01122
G1 X104.311 Y93.341 E.01122
G1 X103.972 Y93.455 E.01122
G1 X103.623 Y93.535 E.01122
G1 X103.268 Y93.579 E.01122
G1 X102.911 Y93.588 E.01122
G1 X102.164 Y93.532 E.02348
G1 X101.969 Y94.211 E.02212
G1 X101.725 Y94.948 E.02436
G1 X101.286 Y96.029 E.03657
G1 X100.763 Y97.069 E.03653
G1 X100.158 Y98.065 E.03653
G1 X99.476 Y99.01 E.03653
G1 X98.72 Y99.896 E.03653
G1 X97.896 Y100.72 E.03652
G1 X97.01 Y101.476 E.03653
G1 X96.048 Y102.169 E.03718
G1 X95.407 Y102.57 E.0237
G1 X94.729 Y102.946 E.02431
G1 X93.673 Y103.442 E.03657
G1 X92.582 Y103.852 E.03653
G1 X91.463 Y104.173 E.03653
G1 X90.321 Y104.404 E.03653
G1 X89.164 Y104.543 E.03653
G1 X87.999 Y104.59 E.03657
G1 X87.223 Y104.569 E.02431
G1 X86.449 Y104.507 E.02435
G1 X85.679 Y104.404 E.02436
G1 X84.916 Y104.26 E.02435
G1 X84.161 Y104.076 E.02436
G1 X83.419 Y103.852 E.02431
G1 X82.327 Y103.442 E.03657
G1 X81.271 Y102.946 E.03657
G1 X80.593 Y102.57 E.02431
G1 X79.935 Y102.158 E.02435
G1 X79.299 Y101.711 E.02436
G1 X78.688 Y101.232 E.02436
G1 X78.103 Y100.72 E.02436
G1 X77.547 Y100.178 E.02435
G1 X77.02 Y99.608 E.02436
G1 X76.525 Y99.011 E.02431
G1 X75.841 Y98.064 E.03661
G1 X75.43 Y97.407 E.02431
G1 X75.054 Y96.728 E.02431
G1 X74.558 Y95.673 E.03657
G1 X74.148 Y94.581 E.03657
G1 X73.924 Y93.839 E.02431
G1 X73.74 Y93.084 E.02436
G1 X73.596 Y92.321 E.02435
G1 X73.493 Y91.551 E.02436
G1 X73.431 Y90.777 E.02435
G1 X73.41 Y90 E.02436
G1 X73.431 Y89.223 E.02436
G1 X73.493 Y88.449 E.02435
G1 X73.596 Y87.679 E.02436
G1 X73.74 Y86.916 E.02435
G1 X73.924 Y86.161 E.02436
G1 X74.148 Y85.419 E.02431
G1 X74.558 Y84.327 E.03657
G1 X75.054 Y83.272 E.03657
G1 X75.43 Y82.593 E.02431
G1 X75.842 Y81.935 E.02436
G1 X76.288 Y81.299 E.02435
G1 X76.768 Y80.688 E.02436
