; generated by PrusaSlicer 2.3.3 on 2022-01-09 at 15:00:30 UTC


;
;

;
;
; 

; external perimeters extrusion width = 0.45mm
; perimeters extrusion width = 0.45mm
; infill extrusion width = 0.45mm
; solid infill extrusion width = 0.45mm
; top infill extrusion width = 0.40mm
; first layer extrusion width = 0.42mm

M73 P0 R38
M201 X1250 Y1250 Z400 E5000 ; sets maximum accelerations, mm/sec^2
M203 X180 Y180 Z12 E80 ; sets maximum feedrates, mm/sec
M204 P1250 R1250 T1250 ; sets acceleration (P, T) and retract acceleration (R), mm/sec^2
M205 X8.00 Y8.00 Z2.00 E10.00 ; sets the jerk limits, mm/sec
M205 S0 T0 ; sets the minimum extruding and travel feed rate, mm/sec
M107
;TYPE:Custom
G90 ; use absolute coordinates
M83 ; extruder relative mode
M104 S170 ; set extruder temp for bed leveling
M140 S60 ; set bed temp
M109 R170 ; wait for bed leveling temp
M190 S60 ; wait for bed temp
G28 ; home all without mesh bed level
G29 ; mesh bed leveling 
M104 S215 ; set extruder temp
G92 E0.0
G1 Y-2.0 X179 F2400
M73 P0 R37
G1 Z3 F720
M109 S215 ; wait for extruder temp

; intro line
G1 X170 F1000
G1 Z0.2 F720
G1 X110.0 E8.0 F900
G1 X40.0 E10.0 F700
G92 E0.0

M221 S95 ; set flow
G21 ; set units to millimeters
G90 ; use absolute coordinates
M83 ; use relative distances for extrusion
M900 K0.2 ; Filament gcode LA 1.5
; ; Filament gcode LA 1.0
;LAYER_CHANGE
;Z:0.2
;HEIGHT:0.2
;BEFORE_LAYER_CHANGE
G92 E0.0
;0.2


G1 E-3.20000 F4200.000
G1 Z0.200 F9000.000
;AFTER_LAYER_CHANGE
;0.2
G1 Z0.400
G1 X44.114 Y59.727
G1 Z0.200
G1 E3.20000 F2400.000
M204 S800
;TYPE:Skirt
;WIDTH:0.42
G1 F1200.000
G1 X44.890 Y58.989 E0.03357
G1 X45.584 Y58.565 E0.02550
G1 X46.302 Y58.295 E0.02406
G1 X47.477 Y58.123 E0.03723
G1 X132.504 Y58.123 E2.66595
G1 X133.426 Y58.222 E0.02907
G1 X134.217 Y58.478 E0.02609
G1 X135.025 Y58.932 E0.02904
G1 X135.409 Y59.237 E0.01538
G1 X135.964 Y59.825 E0.02537
G1 X136.458 Y60.632 E0.02966
G1 X136.764 Y61.511 E0.02919
G1 X136.875 Y62.401 E0.02812
G1 X136.876 Y117.572 E1.72986
M73 P1 R37
G1 X136.759 Y118.507 E0.02954
G1 X136.416 Y119.454 E0.03156
G1 X135.884 Y120.276 E0.03073
G1 X135.110 Y121.011 E0.03345
G1 X134.416 Y121.435 E0.02550
G1 X133.698 Y121.705 E0.02406
G1 X132.523 Y121.877 E0.03723
G1 X47.477 Y121.877 E2.66655
G1 X46.508 Y121.763 E0.03061
G1 X45.557 Y121.422 E0.03168
G1 X44.727 Y120.886 E0.03097
G1 X43.989 Y120.110 E0.03357
G1 X43.565 Y119.416 E0.02550
G1 X43.297 Y118.701 E0.02394
G1 X43.123 Y117.534 E0.03699
G1 X43.123 Y62.466 E1.72664
G1 X43.238 Y61.504 E0.03037
G1 X43.578 Y60.557 E0.03156
G1 X44.081 Y59.777 E0.02909
M204 S1250
; printing object e27_socket_holder-Body.stl id:0 copy 0
G1 E-2.24000 F4200.000
;WIPE_START
G1 F7200.000
G1 X44.890 Y58.989 E-0.62569
G1 X45.331 Y58.719 E-0.28631
;WIPE_END
G1 E-0.04800 F4200.000
G1 Z0.400 F9000.000
G1 X73.100 Y77.910
G1 Z0.200
G1 E3.20000 F2400.000
M204 S800
;TYPE:Perimeter
G1 F1200.000
G1 X73.181 Y77.781 E0.00479
G1 X75.046 Y75.559 E0.09094
G1 X77.201 Y73.618 E0.09094
G1 X79.606 Y71.996 E0.09094
G1 X82.212 Y70.725 E0.09094
G1 X84.971 Y69.829 E0.09094
G1 X87.827 Y69.325 E0.09094
G1 X90.726 Y69.224 E0.09094
G1 X93.610 Y69.527 E0.09094
G1 X96.424 Y70.228 E0.09094
G1 X99.113 Y71.315 E0.09094
G1 X101.625 Y72.765 E0.09094
G1 X103.911 Y74.551 E0.09094
G1 X105.925 Y76.637 E0.09094
G1 X107.630 Y78.984 E0.09094
G1 X108.992 Y81.544 E0.09094
G1 X109.984 Y84.270 E0.09094
G1 X110.587 Y87.107 E0.09094
G1 X110.789 Y90.000 E0.09094
G1 X110.587 Y92.893 E0.09094
G1 X109.984 Y95.730 E0.09094
G1 X108.992 Y98.456 E0.09094
G1 X107.630 Y101.016 E0.09094
G1 X105.925 Y103.363 E0.09094
G1 X103.911 Y105.449 E0.09094
G1 X101.625 Y107.235 E0.09094
G1 X99.113 Y108.685 E0.09094
G1 X96.424 Y109.772 E0.09094
G1 X93.610 Y110.473 E0.09094
G1 X90.726 Y110.776 E0.09094
G1 X87.827 Y110.675 E0.09094
G1 X84.971 Y110.171 E0.09094
G1 X82.212 Y109.275 E0.09094
G1 X79.606 Y108.004 E0.09094
G1 X77.201 Y106.382 E0.09094
G1 X75.046 Y104.441 E0.09094
G1 X73.181 Y102.219 E0.09094
G1 X71.644 Y99.760 E0.09094
G1 X70.465 Y97.110 E0.09094
G1 X69.665 Y94.322 E0.09094
G1 X69.262 Y91.450 E0.09094
G1 X69.262 Y88.550 E0.09094
G1 X69.665 Y85.678 E0.09094
G1 X70.465 Y82.890 E0.09094
G1 X71.644 Y80.240 E0.09094
G1 X73.069 Y77.961 E0.08426
M204 S1250
G1 X73.388 Y78.161 F9000.000
M204 S800
;TYPE:External perimeter
G1 F1200.000
G1 X73.487 Y78.003 E0.00585
G1 X75.318 Y75.821 E0.08928
G1 X77.434 Y73.916 E0.08928
G1 X79.794 Y72.324 E0.08928
G1 X82.354 Y71.075 E0.08928
G1 X85.062 Y70.195 E0.08928
G1 X87.866 Y69.701 E0.08928
G1 X90.712 Y69.601 E0.08928
G1 X93.544 Y69.899 E0.08928
G1 X96.307 Y70.588 E0.08928
G1 X98.948 Y71.655 E0.08928
G1 X101.414 Y73.079 E0.08928
G1 X103.658 Y74.832 E0.08928
G1 X105.636 Y76.880 E0.08928
G1 X107.310 Y79.184 E0.08928
G1 X108.646 Y81.698 E0.08928
G1 X109.620 Y84.374 E0.08928
G1 X110.212 Y87.159 E0.08928
G1 X110.411 Y90.000 E0.08928
G1 X110.212 Y92.841 E0.08928
G1 X109.620 Y95.626 E0.08928
G1 X108.646 Y98.302 E0.08928
G1 X107.310 Y100.816 E0.08928
G1 X105.636 Y103.120 E0.08928
G1 X103.658 Y105.168 E0.08928
G1 X101.414 Y106.921 E0.08928
G1 X98.948 Y108.345 E0.08928
G1 X96.307 Y109.412 E0.08928
G1 X93.544 Y110.101 E0.08928
G1 X90.712 Y110.399 E0.08928
G1 X87.866 Y110.299 E0.08928
G1 X85.062 Y109.805 E0.08928
G1 X82.354 Y108.925 E0.08928
G1 X79.794 Y107.676 E0.08928
G1 X77.434 Y106.084 E0.08928
G1 X75.318 Y104.179 E0.08928
G1 X73.487 Y101.997 E0.08928
G1 X71.978 Y99.582 E0.08928
G1 X70.820 Y96.981 E0.08928
G1 X70.035 Y94.244 E0.08928
G1 X69.639 Y91.424 E0.08928
G1 X69.639 Y88.576 E0.08928
G1 X70.035 Y85.756 E0.08928
G1 X70.820 Y83.019 E0.08928
G1 X71.978 Y80.418 E0.08928
M73 P2 R37
G1 X73.357 Y78.212 E0.08155
M204 S1250
G1 X73.297 Y77.998 F9000.000
G1 E-2.24000 F4200.000
;WIPE_START
G1 F7200.000
G1 X73.487 Y78.003 E-0.13662
G1 X74.387 Y76.931 E-0.77538
;WIPE_END
G1 E-0.04800 F4200.000
G1 Z0.400 F9000.000
G1 X124.788 Y68.168
G1 Z0.200
G1 E3.20000 F2400.000
M204 S800
;TYPE:Perimeter
G1 F1200.000
G1 X124.707 Y67.500 E0.02111
G1 X124.771 Y66.974 E0.01660
G1 X124.788 Y66.832 E0.00451
G1 X125.027 Y66.202 E0.02111
G1 X125.410 Y65.648 E0.02111
G1 X125.913 Y65.202 E0.02111
G1 X126.510 Y64.889 E0.02111
G1 X127.163 Y64.728 E0.02111
G1 X127.837 Y64.728 E0.02111
G1 X128.490 Y64.889 E0.02111
G1 X129.087 Y65.202 E0.02111
G1 X129.590 Y65.648 E0.02111
G1 X129.891 Y66.084 E0.01660
G1 X129.973 Y66.202 E0.00451
G1 X130.212 Y66.832 E0.02111
G1 X130.293 Y67.500 E0.02111
G1 X130.229 Y68.026 E0.01660
G1 X130.212 Y68.168 E0.00451
G1 X129.973 Y68.798 E0.02111
G1 X129.590 Y69.352 E0.02111
G1 X129.087 Y69.798 E0.02111
G1 X128.490 Y70.111 E0.02111
G1 X127.837 Y70.272 E0.02111
G1 X127.163 Y70.272 E0.02111
G1 X126.510 Y70.111 E0.02111
G1 X125.913 Y69.798 E0.02111
G1 X125.410 Y69.352 E0.02111
G1 X125.027 Y68.798 E0.02111
G1 X124.810 Y68.224 E0.01923
M204 S1250
G1 X125.162 Y68.091 F9000.000
M204 S800
;TYPE:External perimeter
G1 F1200.000
G1 X125.087 Y67.500 E0.01867
G1 X125.157 Y66.923 E0.01824
G1 X125.363 Y66.379 E0.01824
G1 X125.694 Y65.900 E0.01824
G1 X126.129 Y65.514 E0.01824
G1 X126.644 Y65.244 E0.01824
G1 X127.209 Y65.105 E0.01824
G1 X127.791 Y65.105 E0.01824
G1 X128.356 Y65.244 E0.01824
G1 X128.871 Y65.514 E0.01824
G1 X129.306 Y65.900 E0.01824
G1 X129.581 Y66.298 E0.01517
G1 X129.637 Y66.379 E0.00307
G1 X129.843 Y66.923 E0.01824
G1 X129.913 Y67.500 E0.01824
G1 X129.855 Y67.980 E0.01517
G1 X129.843 Y68.077 E0.00307
G1 X129.637 Y68.621 E0.01824
G1 X129.306 Y69.100 E0.01824
G1 X128.871 Y69.486 E0.01824
G1 X128.356 Y69.756 E0.01824
G1 X127.791 Y69.895 E0.01824
G1 X127.209 Y69.895 E0.01824
G1 X126.644 Y69.756 E0.01824
G1 X126.129 Y69.486 E0.01824
G1 X125.694 Y69.100 E0.01824
G1 X125.363 Y68.621 E0.01824
G1 X125.183 Y68.147 E0.01591
M204 S1250
G1 X124.777 Y67.981 F9000.000
G1 E-2.24000 F4200.000
;WIPE_START
G1 F7200.000
G1 X125.087 Y67.500 E-0.36243
G1 X125.157 Y66.923 E-0.32237
G1 X125.302 Y66.539 E-0.22720
;WIPE_END
G1 E-0.04800 F4200.000
G1 Z0.400 F9000.000
G1 X127.163 Y109.728
G1 Z0.200
G1 E3.20000 F2400.000
M204 S800
;TYPE:Perimeter
G1 F1200.000
G1 X127.837 Y109.728 E0.02111
G1 X128.490 Y109.889 E0.02111
G1 X129.087 Y110.202 E0.02111
G1 X129.590 Y110.648 E0.02111
G1 X129.891 Y111.084 E0.01660
G1 X129.973 Y111.202 E0.00451
G1 X130.212 Y111.832 E0.02111
G1 X130.293 Y112.500 E0.02111
G1 X130.229 Y113.026 E0.01660
G1 X130.212 Y113.168 E0.00451
G1 X129.973 Y113.798 E0.02111
G1 X129.590 Y114.352 E0.02111
G1 X129.087 Y114.798 E0.02111
G1 X128.490 Y115.111 E0.02111
G1 X127.837 Y115.272 E0.02111
G1 X127.163 Y115.272 E0.02111
G1 X126.510 Y115.111 E0.02111
G1 X125.913 Y114.798 E0.02111
G1 X125.410 Y114.352 E0.02111
G1 X125.109 Y113.916 E0.01660
G1 X125.027 Y113.798 E0.00451
G1 X124.788 Y113.168 E0.02111
G1 X124.707 Y112.500 E0.02111
G1 X124.771 Y111.974 E0.01660
G1 X124.788 Y111.832 E0.00451
G1 X125.027 Y111.202 E0.02111
G1 X125.410 Y110.648 E0.02111
G1 X125.913 Y110.202 E0.02111
G1 X126.510 Y109.889 E0.02111
G1 X127.105 Y109.742 E0.01923
M204 S1250
G1 X127.195 Y110.108 F9000.000
M204 S800
;TYPE:External perimeter
G1 F1200.000
G1 X127.791 Y110.105 E0.01867
G1 X128.356 Y110.244 E0.01824
G1 X128.871 Y110.514 E0.01824
G1 X129.306 Y110.900 E0.01824
G1 X129.581 Y111.298 E0.01517
G1 X129.637 Y111.379 E0.00307
G1 X129.843 Y111.923 E0.01824
G1 X129.913 Y112.500 E0.01824
G1 X129.855 Y112.980 E0.01517
G1 X129.843 Y113.077 E0.00307
G1 X129.637 Y113.621 E0.01824
G1 X129.306 Y114.100 E0.01824
G1 X128.871 Y114.486 E0.01824
G1 X128.356 Y114.756 E0.01824
G1 X127.791 Y114.895 E0.01824
G1 X127.209 Y114.895 E0.01824
G1 X126.644 Y114.756 E0.01824
G1 X126.129 Y114.486 E0.01824
G1 X125.694 Y114.100 E0.01824
G1 X125.419 Y113.702 E0.01517
G1 X125.363 Y113.621 E0.00307
G1 X125.157 Y113.077 E0.01824
G1 X125.087 Y112.500 E0.01824
G1 X125.145 Y112.020 E0.01517
G1 X125.157 Y111.923 E0.00307
G1 X125.363 Y111.379 E0.01824
G1 X125.694 Y110.900 E0.01824
G1 X126.129 Y110.514 E0.01824
G1 X126.644 Y110.244 E0.01824
G1 X127.137 Y110.122 E0.01591
M204 S1250
G1 X127.351 Y109.739 F9000.000
G1 E-2.24000 F4200.000
;WIPE_START
G1 F7200.000
G1 X127.791 Y110.105 E-0.36243
G1 X128.356 Y110.244 E-0.32237
G1 X128.719 Y110.434 E-0.22720
;WIPE_END
G1 E-0.04800 F4200.000
G1 Z0.400 F9000.000
G1 X55.293 Y112.500
G1 Z0.200
G1 E3.20000 F2400.000
M204 S800
;TYPE:Perimeter
G1 F1200.000
G1 X55.212 Y113.168 E0.02111
G1 X54.973 Y113.798 E0.02111
G1 X54.590 Y114.352 E0.02111
G1 X54.087 Y114.798 E0.02111
G1 X53.490 Y115.111 E0.02111
G1 X52.837 Y115.272 E0.02111
G1 X52.163 Y115.272 E0.02111
G1 X51.510 Y115.111 E0.02111
G1 X50.913 Y114.798 E0.02111
G1 X50.410 Y114.352 E0.02111
G1 X50.027 Y113.798 E0.02111
G1 X49.788 Y113.168 E0.02111
G1 X49.707 Y112.500 E0.02111
G1 X49.788 Y111.832 E0.02111
G1 X50.027 Y111.202 E0.02111
G1 X50.410 Y110.648 E0.02111
G1 X50.913 Y110.202 E0.02111
G1 X51.510 Y109.889 E0.02111
G1 X52.163 Y109.728 E0.02111
G1 X52.837 Y109.728 E0.02111
G1 X53.490 Y109.889 E0.02111
G1 X54.087 Y110.202 E0.02111
G1 X54.590 Y110.648 E0.02111
G1 X54.973 Y111.202 E0.02111
G1 X55.212 Y111.832 E0.02111
G1 X55.286 Y112.440 E0.01923
M204 S1250
G1 X54.911 Y112.486 F9000.000
M204 S800
;TYPE:External perimeter
G1 F1200.000
G1 X54.843 Y113.077 E0.01867
G1 X54.637 Y113.621 E0.01824
G1 X54.306 Y114.100 E0.01824
G1 X53.871 Y114.486 E0.01824
G1 X53.356 Y114.756 E0.01824
G1 X52.791 Y114.895 E0.01824
G1 X52.209 Y114.895 E0.01824
G1 X51.644 Y114.756 E0.01824
G1 X51.129 Y114.486 E0.01824
G1 X50.694 Y114.100 E0.01824
G1 X50.363 Y113.621 E0.01824
G1 X50.157 Y113.077 E0.01824
G1 X50.087 Y112.500 E0.01824
G1 X50.157 Y111.923 E0.01824
G1 X50.363 Y111.379 E0.01824
G1 X50.694 Y110.900 E0.01824
G1 X51.129 Y110.514 E0.01824
G1 X51.644 Y110.244 E0.01824
G1 X52.209 Y110.105 E0.01824
G1 X52.791 Y110.105 E0.01824
G1 X53.356 Y110.244 E0.01824
G1 X53.871 Y110.514 E0.01824
G1 X54.306 Y110.900 E0.01824
G1 X54.637 Y111.379 E0.01824
G1 X54.843 Y111.923 E0.01824
G1 X54.904 Y112.426 E0.01591
M204 S1250
G1 X55.259 Y112.684 F9000.000
G1 E-2.24000 F4200.000
;WIPE_START
G1 F7200.000
G1 X54.843 Y113.077 E-0.36243
G1 X54.637 Y113.621 E-0.32237
G1 X54.404 Y113.959 E-0.22720
;WIPE_END
G1 E-0.04800 F4200.000
G1 Z0.400 F9000.000
G1 X52.837 Y70.272
G1 Z0.200
G1 E3.20000 F2400.000
M204 S800
;TYPE:Perimeter
G1 F1200.000
G1 X52.163 Y70.272 E0.02111
G1 X51.510 Y70.111 E0.02111
G1 X50.913 Y69.798 E0.02111
G1 X50.410 Y69.352 E0.02111
G1 X50.109 Y68.916 E0.01660
G1 X50.027 Y68.798 E0.00451
G1 X49.788 Y68.168 E0.02111
G1 X49.707 Y67.500 E0.02111
G1 X49.771 Y66.974 E0.01660
G1 X49.788 Y66.832 E0.00451
G1 X50.027 Y66.202 E0.02111
G1 X50.410 Y65.648 E0.02111
G1 X50.913 Y65.202 E0.02111
G1 X51.510 Y64.889 E0.02111
G1 X52.163 Y64.728 E0.02111
G1 X52.837 Y64.728 E0.02111
G1 X53.490 Y64.889 E0.02111
G1 X54.087 Y65.202 E0.02111
G1 X54.590 Y65.648 E0.02111
G1 X54.891 Y66.084 E0.01660
G1 X54.973 Y66.202 E0.00451
G1 X55.212 Y66.832 E0.02111
G1 X55.293 Y67.500 E0.02111
G1 X55.229 Y68.026 E0.01660
G1 X55.212 Y68.168 E0.00451
G1 X54.973 Y68.798 E0.02111
G1 X54.590 Y69.352 E0.02111
G1 X54.087 Y69.798 E0.02111
G1 X53.490 Y70.111 E0.02111
G1 X52.895 Y70.258 E0.01923
M204 S1250
G1 X52.805 Y69.892 F9000.000
M204 S800
;TYPE:External perimeter
G1 F1200.000
G1 X52.209 Y69.895 E0.01867
G1 X51.644 Y69.756 E0.01824
G1 X51.129 Y69.486 E0.01824
G1 X50.694 Y69.100 E0.01824
G1 X50.419 Y68.702 E0.01517
G1 X50.363 Y68.621 E0.00307
G1 X50.157 Y68.077 E0.01824
G1 X50.087 Y67.500 E0.01824
G1 X50.145 Y67.020 E0.01517
G1 X50.157 Y66.923 E0.00307
G1 X50.363 Y66.379 E0.01824
G1 X50.694 Y65.900 E0.01824
G1 X51.129 Y65.514 E0.01824
G1 X51.644 Y65.244 E0.01824
G1 X52.209 Y65.105 E0.01824
G1 X52.791 Y65.105 E0.01824
G1 X53.356 Y65.244 E0.01824
G1 X53.871 Y65.514 E0.01824
G1 X54.306 Y65.900 E0.01824
G1 X54.581 Y66.298 E0.01517
G1 X54.637 Y66.379 E0.00307
G1 X54.843 Y66.923 E0.01824
G1 X54.913 Y67.500 E0.01824
G1 X54.855 Y67.980 E0.01517
G1 X54.843 Y68.077 E0.00307
G1 X54.637 Y68.621 E0.01824
G1 X54.306 Y69.100 E0.01824
G1 X53.871 Y69.486 E0.01824
G1 X53.356 Y69.756 E0.01824
G1 X52.863 Y69.878 E0.01591
M204 S1250
G1 X52.649 Y70.261 F9000.000
G1 E-2.24000 F4200.000
;WIPE_START
G1 F7200.000
G1 X52.209 Y69.895 E-0.36243
G1 X51.644 Y69.756 E-0.32236
G1 X51.281 Y69.566 E-0.22720
;WIPE_END
G1 E-0.04800 F4200.000
G1 Z0.400 F9000.000
G1 X46.322 Y62.231
G1 Z0.200
G1 E3.20000 F2400.000
M204 S800
;TYPE:Perimeter
G1 F1200.000
G1 X46.412 Y61.976 E0.00848
G1 X46.556 Y61.747 E0.00848
G1 X46.747 Y61.556 E0.00848
G1 X46.976 Y61.412 E0.00848
G1 X47.231 Y61.322 E0.00848
G1 X47.544 Y61.287 E0.00988
G1 X132.456 Y61.287 E2.66234
G1 X132.769 Y61.322 E0.00988
G1 X133.024 Y61.412 E0.00848
G1 X133.253 Y61.556 E0.00848
G1 X133.444 Y61.747 E0.00848
G1 X133.588 Y61.976 E0.00848
G1 X133.678 Y62.231 E0.00848
G1 X133.713 Y62.544 E0.00988
G1 X133.713 Y117.456 E1.72171
M73 P2 R36
G1 X133.678 Y117.769 E0.00988
G1 X133.588 Y118.024 E0.00848
G1 X133.444 Y118.253 E0.00848
G1 X133.253 Y118.444 E0.00848
G1 X133.024 Y118.588 E0.00848
G1 X132.769 Y118.678 E0.00848
G1 X132.456 Y118.713 E0.00988
G1 X47.544 Y118.713 E2.66234
G1 X47.231 Y118.678 E0.00988
G1 X46.976 Y118.588 E0.00848
G1 X46.747 Y118.444 E0.00848
G1 X46.556 Y118.253 E0.00848
G1 X46.412 Y118.024 E0.00848
G1 X46.322 Y117.769 E0.00848
G1 X46.287 Y117.456 E0.00988
G1 X46.287 Y62.544 E1.72171
M73 P3 R36
G1 X46.316 Y62.291 E0.00799
M204 S1250
G1 X45.952 Y62.147 F9000.000
M204 S800
;TYPE:External perimeter
G1 F1200.000
G1 X46.070 Y61.811 E0.01115
G1 X46.259 Y61.510 E0.01115
G1 X46.510 Y61.259 E0.01115
G1 X46.811 Y61.070 E0.01115
G1 X47.147 Y60.952 E0.01115
G1 X47.523 Y60.910 E0.01187
G1 X132.477 Y60.910 E2.66367
G1 X132.853 Y60.952 E0.01187
G1 X133.189 Y61.070 E0.01115
G1 X133.490 Y61.259 E0.01115
G1 X133.741 Y61.510 E0.01115
G1 X133.930 Y61.811 E0.01115
G1 X134.048 Y62.147 E0.01115
G1 X134.090 Y62.523 E0.01187
G1 X134.090 Y117.477 E1.72304
G1 X134.048 Y117.853 E0.01187
G1 X133.930 Y118.189 E0.01115
G1 X133.741 Y118.490 E0.01115
G1 X133.490 Y118.741 E0.01115
G1 X133.189 Y118.930 E0.01115
G1 X132.853 Y119.048 E0.01115
G1 X132.477 Y119.090 E0.01187
G1 X47.523 Y119.090 E2.66367
G1 X47.147 Y119.048 E0.01187
G1 X46.811 Y118.930 E0.01115
G1 X46.510 Y118.741 E0.01115
