; generated by PrusaSlicer 2.3.3 on 2022-02-20 at 20:34:22 UTC


;
;

;
;
; 

; external perimeters extrusion width = 0.45mm
; perimeters extrusion width = 0.45mm
; infill extrusion width = 0.45mm
; solid infill extrusion width = 0.45mm
; top infill extrusion width = 0.40mm
; first layer extrusion width = 0.42mm

M73 P0 R13
M201 X1250 Y1250 Z400 E5000 ; sets maximum accelerations, mm/sec^2
M203 X180 Y180 Z12 E80 ; sets maximum feedrates, mm/sec
M204 P1250 R1250 T1250 ; sets acceleration (P, T) and retract acceleration (R), mm/sec^2
M205 X8.00 Y8.00 Z2.00 E10.00 ; sets the jerk limits, mm/sec
M205 S0 T0 ; sets the minimum extruding and travel feed rate, mm/sec
M107
;TYPE:Custom
G90 ; use absolute coordinates
M83 ; extruder relative mode
M104 S170 ; set extruder temp for bed leveling
M140 S60 ; set bed temp
M109 R170 ; wait for bed leveling temp
M190 S60 ; wait for bed temp
G28 ; home all without mesh bed level
G29 ; mesh bed leveling 
M104 S215 ; set extruder temp
G92 E0.0
G1 Y-2.0 X179 F2400
M73 P0 R12
G1 Z3 F720
M109 S215 ; wait for extruder temp

; intro line
G1 X170 F1000
G1 Z0.2 F720
G1 X110.0 E8.0 F900
M73 P1 R12
G1 X40.0 E10.0 F700
G92 E0.0

M221 S95 ; set flow
G21 ; set units to millimeters
G90 ; use absolute coordinates
M83 ; use relative distances for extrusion
M900 K0.2 ; Filament gcode LA 1.5
; ; Filament gcode LA 1.0
;LAYER_CHANGE
;Z:0.2
;HEIGHT:0.2
;BEFORE_LAYER_CHANGE
G92 E0.0
;0.2


M73 P2 R12
G1 E-3.20000 F4200.000
G1 Z0.200 F9000.000
;AFTER_LAYER_CHANGE
;0.2
G1 Z0.400
G1 X72.372 Y83.403
G1 Z0.200
G1 E3.20000 F2400.000
M204 S800
;TYPE:Skirt
;WIDTH:0.42
G1 F1200.000
G1 X73.579 Y82.464 E0.04795
G1 X74.592 Y81.888 E0.03654
G1 X75.652 Y81.464 E0.03577
G1 X77.117 Y81.103 E0.04731
G1 X78.450 Y80.996 E0.04193
G1 X101.504 Y80.996 E0.72285
G1 X102.873 Y81.101 E0.04306
G1 X104.327 Y81.456 E0.04692
G1 X105.406 Y81.887 E0.03642
G1 X106.398 Y82.451 E0.03578
G1 X107.491 Y83.283 E0.04307
G1 X108.521 Y84.363 E0.04680
G1 X109.297 Y85.497 E0.04309
G1 X109.893 Y86.740 E0.04322
G1 X110.312 Y88.168 E0.04667
G1 X110.487 Y89.533 E0.04313
G1 X110.479 Y90.676 E0.03584
G1 X110.313 Y91.826 E0.03642
G1 X109.894 Y93.258 E0.04680
G1 X109.300 Y94.498 E0.04309
G1 X108.520 Y95.639 E0.04335
G1 X107.492 Y96.716 E0.04667
G1 X106.403 Y97.546 E0.04294
G1 X105.408 Y98.112 E0.03590
G1 X104.348 Y98.536 E0.03577
G1 X102.883 Y98.897 E0.04731
G1 X101.538 Y99.004 E0.04232
G1 X78.488 Y99.004 E0.72272
G1 X77.151 Y98.903 E0.04204
G1 X75.851 Y98.606 E0.04181
G1 X74.620 Y98.125 E0.04142
G1 X73.452 Y97.456 E0.04220
G1 X72.532 Y96.735 E0.03667
G1 X71.358 Y95.477 E0.05395
G1 X70.690 Y94.482 E0.03757
G1 X70.117 Y93.287 E0.04155
G1 X69.687 Y91.823 E0.04782
G1 X69.521 Y90.674 E0.03642
G1 X69.513 Y89.504 E0.03667
G1 X69.721 Y87.997 E0.04769
G1 X70.187 Y86.549 E0.04769
G1 X70.702 Y85.499 E0.03667
G1 X71.352 Y84.531 E0.03655
G1 X72.332 Y83.447 E0.04581
M204 S1250
G1 X72.610 Y83.700 F9000.000
M204 S800
G1 F1200.000
G1 X73.776 Y82.786 E0.04646
G1 X74.758 Y82.227 E0.03542
G1 X75.818 Y81.804 E0.03578
G1 X77.185 Y81.474 E0.04411
G1 X78.459 Y81.373 E0.04007
G1 X101.504 Y81.373 E0.72254
M73 P3 R12
G1 X102.810 Y81.473 E0.04106
G1 X104.192 Y81.808 E0.04458
G1 X105.241 Y82.226 E0.03542
G1 X106.209 Y82.777 E0.03494
G1 X107.251 Y83.574 E0.04112
G1 X108.229 Y84.601 E0.04447
G1 X108.972 Y85.688 E0.04126
G1 X109.539 Y86.871 E0.04114
G1 X109.941 Y88.235 E0.04458
G1 X110.110 Y89.533 E0.04105
G1 X110.103 Y90.646 E0.03490
G1 X109.941 Y91.764 E0.03542
G1 X109.540 Y93.128 E0.04458
G1 X108.971 Y94.315 E0.04126
G1 X108.230 Y95.398 E0.04114
G1 X107.249 Y96.427 E0.04458
G1 X106.362 Y97.127 E0.03542
G1 X105.400 Y97.690 E0.03494
G1 X104.182 Y98.196 E0.04136
G1 X102.811 Y98.527 E0.04423
G1 X101.529 Y98.627 E0.04031
G1 X78.489 Y98.627 E0.72242
G1 X77.217 Y98.531 E0.03999
G1 X75.960 Y98.245 E0.04043
G1 X74.776 Y97.782 E0.03983
G1 X73.658 Y97.140 E0.04043
G1 X72.764 Y96.438 E0.03566
G1 X71.663 Y95.256 E0.05064
G1 X71.019 Y94.296 E0.03625
G1 X70.459 Y93.126 E0.04067
G1 X70.059 Y91.761 E0.04458
G1 X69.897 Y90.643 E0.03542
G1 X69.891 Y89.506 E0.03566
G1 X70.089 Y88.079 E0.04518
G1 X70.533 Y86.700 E0.04542
G1 X71.029 Y85.685 E0.03542
G1 X71.660 Y84.748 E0.03542
G1 X72.570 Y83.745 E0.04248
M204 S1250
; printing object magnet_holder.stl id:0 copy 0
G1 E-2.24000 F4200.000
;WIPE_START
G1 F7200.000
G1 X73.776 Y82.786 E-0.85396
G1 X73.867 Y82.734 E-0.05804
;WIPE_END
G1 E-0.04800 F4200.000
G1 Z0.400 F9000.000
G1 X84.590 Y84.590
G1 Z0.200
G1 E3.20000 F2400.000
M204 S800
;TYPE:External perimeter
G1 F1200.000
G1 X95.410 Y84.590 E0.33925
G1 X95.410 Y95.410 E0.33925
G1 X84.590 Y95.410 E0.33925
G1 X84.590 Y84.650 E0.33737
M204 S1250
G1 X84.486 Y84.204 F9000.000
G1 E-2.24000 F4200.000
;WIPE_START
G1 F7200.000
G1 X86.236 Y84.641 E-0.91200
;WIPE_END
G1 E-0.04800 F4200.000
G1 Z0.400 F9000.000
G1 X80.403 Y88.314
G1 Z0.200
G1 E3.20000 F2400.000
M204 S800
;TYPE:Perimeter
G1 F1200.000
G1 X80.752 Y88.818 E0.01922
G1 X80.969 Y89.391 E0.01922
G1 X81.038 Y89.957 E0.01786
G1 X80.971 Y90.604 E0.02038
G1 X80.752 Y91.182 E0.01939
G1 X80.403 Y91.686 E0.01922
G1 X79.945 Y92.093 E0.01922
G1 X79.402 Y92.378 E0.01922
G1 X78.807 Y92.524 E0.01922
G1 X78.193 Y92.524 E0.01922
M73 P4 R12
G1 X77.640 Y92.388 E0.01786
G1 X77.060 Y92.096 E0.02038
G1 X76.597 Y91.686 E0.01939
G1 X76.248 Y91.182 E0.01922
G1 X76.031 Y90.609 E0.01922
G1 X75.962 Y90.043 E0.01786
G1 X76.029 Y89.396 E0.02038
G1 X76.248 Y88.818 E0.01939
G1 X76.597 Y88.314 E0.01922
G1 X77.055 Y87.907 E0.01922
G1 X77.560 Y87.643 E0.01786
G1 X78.188 Y87.476 E0.02038
G1 X78.807 Y87.476 E0.01939
G1 X79.360 Y87.612 E0.01786
G1 X79.940 Y87.904 E0.02038
G1 X80.358 Y88.274 E0.01751
M204 S1250
G1 X80.108 Y88.556 F9000.000
M204 S800
;TYPE:External perimeter
G1 F1200.000
G1 X80.415 Y88.995 E0.01678
G1 X80.600 Y89.482 E0.01635
G1 X80.658 Y89.960 E0.01509
G1 X80.601 Y90.516 E0.01751
G1 X80.415 Y91.005 E0.01641
G1 X80.119 Y91.434 E0.01635
G1 X79.729 Y91.780 E0.01635
G1 X79.267 Y92.022 E0.01635
G1 X78.761 Y92.147 E0.01635
G1 X78.239 Y92.147 E0.01635
G1 X77.772 Y92.032 E0.01509
G1 X77.273 Y91.781 E0.01751
G1 X76.881 Y91.434 E0.01641
G1 X76.585 Y91.005 E0.01635
G1 X76.400 Y90.518 E0.01635
G1 X76.342 Y90.040 E0.01509
G1 X76.399 Y89.484 E0.01751
G1 X76.585 Y88.995 E0.01641
G1 X76.881 Y88.566 E0.01635
G1 X77.271 Y88.220 E0.01635
G1 X77.698 Y87.996 E0.01509
G1 X78.237 Y87.853 E0.01751
G1 X78.761 Y87.853 E0.01641
G1 X79.228 Y87.968 E0.01509
G1 X79.727 Y88.219 E0.01751
G1 X80.063 Y88.516 E0.01408
M204 S1250
G1 X80.500 Y88.473 F9000.000
G1 E-2.24000 F4200.000
;WIPE_START
G1 F7200.000
G1 X80.415 Y88.995 E-0.32904
G1 X80.600 Y89.482 E-0.28897
G1 X80.658 Y89.960 E-0.26678
G1 X80.653 Y90.009 E-0.02720
;WIPE_END
G1 E-0.04800 F4200.000
G1 Z0.400 F9000.000
G1 X84.213 Y84.537
G1 Z0.200
G1 E3.20000 F2400.000
M204 S800
;TYPE:Perimeter
G1 F1200.000
G1 X84.213 Y95.463 E0.34257
G1 X78.529 Y95.463 E0.17820
G1 X77.686 Y95.400 E0.02652
G1 X76.890 Y95.218 E0.02559
G1 X76.131 Y94.920 E0.02559
G1 X75.424 Y94.512 E0.02559
G1 X74.786 Y94.003 E0.02559
G1 X74.231 Y93.405 E0.02559
G1 X73.771 Y92.730 E0.02559
G1 X73.417 Y91.995 E0.02559
G1 X73.176 Y91.215 E0.02559
G1 X73.055 Y90.408 E0.02559
G1 X73.055 Y89.592 E0.02559
G1 X73.176 Y88.785 E0.02559
G1 X73.417 Y88.005 E0.02559
G1 X73.771 Y87.270 E0.02559
G1 X74.231 Y86.595 E0.02559
G1 X74.786 Y85.997 E0.02559
G1 X75.424 Y85.488 E0.02559
G1 X76.131 Y85.080 E0.02559
G1 X76.890 Y84.782 E0.02559
G1 X77.686 Y84.600 E0.02559
G1 X78.529 Y84.537 E0.02652
G1 X84.153 Y84.537 E0.17632
M204 S1250
G1 E-2.24000 F4200.000
;WIPE_START
G1 F7200.000
G1 X84.162 Y86.183 E-0.91200
;WIPE_END
G1 E-0.04800 F4200.000
G1 Z0.400 F9000.000
G1 X99.029 Y89.396
G1 Z0.200
G1 E3.20000 F2400.000
M204 S800
G1 F1200.000
G1 X99.248 Y88.818 E0.01939
G1 X99.597 Y88.314 E0.01922
G1 X100.055 Y87.907 E0.01922
G1 X100.560 Y87.643 E0.01786
G1 X101.188 Y87.476 E0.02038
G1 X101.807 Y87.476 E0.01939
G1 X102.360 Y87.612 E0.01786
G1 X102.940 Y87.904 E0.02038
G1 X103.403 Y88.314 E0.01939
G1 X103.752 Y88.818 E0.01922
G1 X103.969 Y89.391 E0.01922
G1 X104.038 Y89.957 E0.01786
G1 X103.971 Y90.604 E0.02038
G1 X103.752 Y91.182 E0.01939
G1 X103.403 Y91.686 E0.01922
G1 X102.945 Y92.093 E0.01922
G1 X102.402 Y92.378 E0.01922
G1 X101.807 Y92.524 E0.01922
G1 X101.193 Y92.524 E0.01922
G1 X100.640 Y92.388 E0.01786
G1 X100.060 Y92.096 E0.02038
G1 X99.597 Y91.686 E0.01939
G1 X99.248 Y91.182 E0.01922
G1 X99.031 Y90.609 E0.01922
G1 X98.962 Y90.043 E0.01786
G1 X99.023 Y89.456 E0.01850
M204 S1250
G1 X99.398 Y89.495 F9000.000
M204 S800
;TYPE:External perimeter
G1 F1200.000
G1 X99.585 Y88.995 E0.01674
G1 X99.881 Y88.566 E0.01635
G1 X100.271 Y88.220 E0.01635
G1 X100.698 Y87.996 E0.01509
G1 X101.237 Y87.853 E0.01751
G1 X101.761 Y87.853 E0.01641
G1 X102.228 Y87.968 E0.01509
G1 X102.727 Y88.219 E0.01751
G1 X103.119 Y88.566 E0.01641
G1 X103.415 Y88.995 E0.01635
G1 X103.600 Y89.482 E0.01635
G1 X103.658 Y89.960 E0.01509
G1 X103.601 Y90.516 E0.01751
G1 X103.415 Y91.005 E0.01641
G1 X103.119 Y91.434 E0.01635
G1 X102.729 Y91.780 E0.01635
G1 X102.267 Y92.022 E0.01635
G1 X101.761 Y92.147 E0.01635
G1 X101.239 Y92.147 E0.01635
G1 X100.772 Y92.032 E0.01509
G1 X100.273 Y91.781 E0.01751
G1 X99.881 Y91.434 E0.01641
G1 X99.585 Y91.005 E0.01635
G1 X99.400 Y90.518 E0.01635
G1 X99.342 Y90.040 E0.01509
G1 X99.392 Y89.555 E0.01529
M204 S1250
G1 X99.108 Y89.219 F9000.000
G1 E-2.24000 F4200.000
;WIPE_START
G1 F7200.000
G1 X99.585 Y88.995 E-0.32809
G1 X99.881 Y88.566 E-0.28897
G1 X100.271 Y88.220 E-0.28897
G1 X100.281 Y88.215 E-0.00598
;WIPE_END
G1 E-0.04800 F4200.000
G1 Z0.400 F9000.000
G1 X95.787 Y84.537
G1 Z0.200
G1 E3.20000 F2400.000
M204 S800
;TYPE:Perimeter
G1 F1200.000
G1 X101.471 Y84.537 E0.17820
G1 X102.314 Y84.600 E0.02652
G1 X103.110 Y84.782 E0.02559
G1 X103.869 Y85.080 E0.02559
G1 X104.576 Y85.488 E0.02559
G1 X105.214 Y85.997 E0.02559
G1 X105.769 Y86.595 E0.02559
G1 X106.229 Y87.270 E0.02559
G1 X106.583 Y88.005 E0.02559
G1 X106.824 Y88.785 E0.02559
G1 X106.945 Y89.592 E0.02559
G1 X106.945 Y90.408 E0.02559
G1 X106.824 Y91.215 E0.02559
G1 X106.583 Y91.995 E0.02559
G1 X106.229 Y92.730 E0.02559
G1 X105.771 Y93.402 E0.02549
G1 X105.214 Y94.003 E0.02569
G1 X104.576 Y94.512 E0.02559
G1 X103.869 Y94.920 E0.02559
G1 X103.110 Y95.218 E0.02559
G1 X102.314 Y95.400 E0.02559
G1 X101.471 Y95.463 E0.02652
G1 X95.787 Y95.463 E0.17820
M73 P5 R12
G1 X95.787 Y84.597 E0.34069
M204 S1250
G1 X95.787 Y84.160 F9000.000
M204 S800
;TYPE:External perimeter
G1 F1200.000
G1 X101.485 Y84.160 E0.17864
G1 X102.370 Y84.226 E0.02784
G1 X103.221 Y84.421 E0.02736
G1 X104.033 Y84.739 E0.02736
G1 X104.789 Y85.176 E0.02736
G1 X105.471 Y85.720 E0.02736
G1 X106.065 Y86.360 E0.02736
G1 X106.557 Y87.081 E0.02736
G1 X106.935 Y87.867 E0.02736
G1 X107.192 Y88.701 E0.02736
G1 X107.323 Y89.564 E0.02736
G1 X107.323 Y90.436 E0.02736
G1 X107.192 Y91.299 E0.02736
G1 X106.935 Y92.133 E0.02736
G1 X106.557 Y92.919 E0.02736
G1 X106.067 Y93.638 E0.02726
G1 X105.471 Y94.280 E0.02747
G1 X104.789 Y94.824 E0.02736
G1 X104.033 Y95.261 E0.02736
G1 X103.221 Y95.579 E0.02736
G1 X102.370 Y95.774 E0.02736
G1 X101.485 Y95.840 E0.02784
G1 X78.515 Y95.840 E0.72019
G1 X77.630 Y95.774 E0.02784
G1 X76.779 Y95.579 E0.02736
G1 X75.967 Y95.261 E0.02736
G1 X75.211 Y94.824 E0.02736
G1 X74.529 Y94.280 E0.02736
G1 X73.935 Y93.640 E0.02736
G1 X73.443 Y92.919 E0.02736
G1 X73.065 Y92.133 E0.02736
G1 X72.808 Y91.299 E0.02736
G1 X72.677 Y90.436 E0.02736
G1 X72.677 Y89.564 E0.02736
G1 X72.808 Y88.701 E0.02736
G1 X73.065 Y87.867 E0.02736
G1 X73.443 Y87.081 E0.02736
G1 X73.935 Y86.360 E0.02736
G1 X74.529 Y85.720 E0.02736
G1 X75.211 Y85.176 E0.02736
G1 X75.967 Y84.739 E0.02736
G1 X76.779 Y84.421 E0.02736
G1 X77.630 Y84.226 E0.02736
G1 X78.515 Y84.160 E0.02784
G1 X95.727 Y84.160 E0.53966
M204 S1250
G1 X95.987 Y84.506 F9000.000
G1 X95.599 Y84.375
M204 S800
;TYPE:Gap fill
;WIDTH:0.0958424
G1 F1200.000
G1 X84.401 Y84.375 E0.04927
M204 S1250
G1 X83.318 Y84.650 F9000.000
M204 S800
;TYPE:Solid infill
;WIDTH:0.429145
G1 F1200.000
G1 X83.930 Y85.262 E0.02779
G1 X83.930 Y85.808 E0.01754
G1 X82.942 Y84.820 E0.04489
G1 X82.395 Y84.820 E0.01754
G1 X83.930 Y86.355 E0.06970
G1 X83.930 Y86.901 E0.01754
G1 X81.849 Y84.820 E0.09451
G1 X81.303 Y84.820 E0.01754
G1 X83.930 Y87.447 E0.11932
G1 X83.930 Y87.993 E0.01754
G1 X80.757 Y84.820 E0.14412
G1 X80.211 Y84.820 E0.01754
G1 X83.930 Y88.539 E0.16893
G1 X83.930 Y89.086 E0.01754
G1 X79.664 Y84.820 E0.19374
G1 X79.118 Y84.820 E0.01754
G1 X83.930 Y89.632 E0.21854
G1 X83.930 Y90.178 E0.01754
G1 X78.572 Y84.820 E0.24335
M73 P6 R12
G1 X78.062 Y84.856 E0.01643
G1 X83.930 Y90.724 E0.26653
G1 X83.930 Y91.270 E0.01754
G1 X77.575 Y84.916 E0.28862
G1 X77.131 Y85.017 E0.01465
G1 X79.459 Y87.346 E0.10575
G1 X80.100 Y87.668 E0.02305
G1 X80.617 Y88.125 E0.02215
G1 X81.004 Y88.686 E0.02189
G1 X81.129 Y89.015 E0.01131
G1 X83.930 Y91.817 E0.12723
G1 X83.930 Y92.363 E0.01754
G1 X81.295 Y89.727 E0.11970
G1 X81.322 Y89.954 E0.00734
G1 X81.290 Y90.269 E0.01015
G1 X83.930 Y92.909 E0.11992
G1 X83.930 Y93.455 E0.01754
G1 X81.220 Y90.745 E0.12310
G1 X81.070 Y91.141 E0.01360
G1 X83.930 Y94.001 E0.12992
G1 X83.930 Y94.548 E0.01754
G1 X80.878 Y91.496 E0.13860
G1 X80.655 Y91.819 E0.01261
G1 X83.930 Y95.094 E0.14873
G1 X83.930 Y95.180 E0.00277
G1 X83.470 Y95.180 E0.01477
G1 X80.377 Y92.087 E0.14047
G1 X80.083 Y92.339 E0.01244
G1 X82.924 Y95.180 E0.12902
G1 X82.378 Y95.180 E0.01754
G1 X79.725 Y92.527 E0.12048
G1 X79.503 Y92.644 E0.00806
G1 X79.336 Y92.685 E0.00550
G1 X81.832 Y95.180 E0.11332
G1 X81.285 Y95.180 E0.01754
G1 X78.898 Y92.793 E0.10842
G1 X78.841 Y92.807 E0.00190
G1 X78.366 Y92.807 E0.01524
G1 X80.909 Y95.350 E0.11548
M204 S1250
G1 E-2.24000 F4200.000
;WIPE_START
G1 F7200.000
G1 X79.745 Y94.186 E-0.91200
;WIPE_END
G1 E-0.04800 F4200.000
G1 Z0.400 F9000.000
G1 X78.966 Y87.398
G1 Z0.200
G1 E3.20000 F2400.000
M204 S800
G1 F1200.000
G1 X76.720 Y85.153 E0.10200
G1 X76.328 Y85.307 E0.01353
G1 X78.214 Y87.193 E0.08567
G1 X78.151 Y87.193 E0.00202
G1 X77.769 Y87.294 E0.01269
G1 X75.973 Y85.498 E0.08159
G1 X75.626 Y85.698 E0.01284
G1 X77.358 Y87.429 E0.07864
G1 X77.000 Y87.617 E0.01299
G1 X75.317 Y85.935 E0.07641
G1 X75.013 Y86.177 E0.01248
G1 X76.690 Y87.853 E0.07613
G1 X76.400 Y88.110 E0.01243
G1 X74.746 Y86.456 E0.07513
G1 X74.483 Y86.739 E0.01241
G1 X76.173 Y88.429 E0.07677
G1 X75.996 Y88.686 E0.01001
G1 X75.965 Y88.768 E0.00280
G1 X74.257 Y87.059 E0.07759
G1 X74.035 Y87.384 E0.01262
G1 X75.815 Y89.164 E0.08083
G1 X75.752 Y89.331 E0.00574
G1 X75.722 Y89.617 E0.00924
G1 X73.854 Y87.749 E0.08484
G1 X73.678 Y88.119 E0.01316
G1 X75.882 Y90.323 E0.10014
M204 S1250
G1 E-2.24000 F4200.000
;WIPE_START
G1 F7200.000
G1 X74.719 Y89.160 E-0.91200
;WIPE_END
G1 E-0.04800 F4200.000
G1 Z0.400 F9000.000
G1 X73.413 Y88.400
G1 Z0.200
G1 E3.20000 F2400.000
M204 S800
G1 F1200.000
G1 X75.794 Y90.781 E0.10813
G1 X75.996 Y91.314 E0.01830
G1 X76.383 Y91.875 E0.02189
G1 X76.900 Y92.332 E0.02215
M73 P7 R12
G1 X77.542 Y92.655 E0.02308
G1 X77.709 Y92.696 E0.00552
G1 X80.193 Y95.180 E0.11281
G1 X79.647 Y95.180 E0.01754
G1 X73.435 Y88.968 E0.28214
G1 X73.363 Y89.443 E0.01542
G1 X79.101 Y95.180 E0.26058
G1 X78.554 Y95.180 E0.01754
G1 X73.337 Y89.963 E0.23694
G1 X73.337 Y90.387 E0.01361
G1 X73.359 Y90.531 E0.00468
G1 X77.965 Y95.137 E0.20919
G1 X77.728 Y95.119 E0.00762
G1 X77.304 Y95.023 E0.01397
G1 X73.461 Y91.179 E0.17455
G1 X73.681 Y91.891 E0.02393
G1 X73.731 Y91.995 E0.00369
G1 X76.495 Y94.759 E0.12553
G1 X76.254 Y94.664 E0.00831
G1 X75.584 Y94.278 E0.02485
G1 X75.008 Y93.818 E0.02366
G1 X73.882 Y92.693 E0.05112
M204 S1250
G1 E-2.24000 F4200.000
;WIPE_START
G1 F7200.000
G1 X75.008 Y93.818 E-0.88213
G1 X75.050 Y93.852 E-0.02988
;WIPE_END
G1 E-0.04800 F4200.000
G1 Z0.400 F9000.000
G1 X84.401 Y95.625
G1 Z0.200
G1 E3.20000 F2400.000
M204 S800
;TYPE:Gap fill
;WIDTH:0.0958424
G1 F1200.000
G1 X95.599 Y95.625 E0.04927
M204 S1250
G1 E-2.24000 F4200.000
;WIPE_START
G1 F7200.000
G1 X93.953 Y95.625 E-0.91200
;WIPE_END
G1 E-0.04800 F4200.000
G1 Z0.400 F9000.000
G1 X106.118 Y87.308
G1 Z0.200
G1 E3.20000 F2400.000
M204 S800
;TYPE:Solid infill
;WIDTH:0.429145
